; generated by PrusaSlicer 2.9.4 on 2026-03-12 at 13:09:15 UTC

; 

; external perimeters extrusion width = 0.42mm
; perimeters extrusion width = 0.44mm
; infill extrusion width = 0.44mm
; solid infill extrusion width = 0.44mm
; top infill extrusion width = 0.40mm
; support material extrusion width = 0.36mm
; first layer extrusion width = 0.42mm

;TYPE:Custom
G90 ; use absolute coordinates
M83 ; extruder relative mode
M140 S60 ; set final bed temp
M104 S150 ; set temporary nozzle temp to prevent oozing during homing and auto bed leveling
G4 S10 ; allow partial nozzle warmup
G28 ; home all axis

G1 Z50 F240
G1 X2 Y10 F3000
M104 S210 ; set final nozzle temp
M190 S60 ; wait for bed temp to stabilize
M109 S210 ; wait for nozzle temp to stabilize
G1 Z0.28 F240
G92 E0
G1 Y140 E10 F1500 ; prime the nozzle
G1 X2.3 F5000
G92 E0
G1 Y10 E10 F1200 ; prime the nozzle
G92 E0

M300 S300 P200 ; beep
G21 ; set units to millimeters
G90 ; use absolute coordinates
M83 ; use relative distances for extrusion
; Filament gcode

; play sound when print starts
M300 S523 P100
M107
;LAYER_CHANGE
;Z:0.2
;HEIGHT:0.2
G1 E-.8 F1800
G1 Z.2 F9000
G1 X18.949 Y22.491
G1 E.8 F1800
M204 S500
;TYPE:Skirt/Brim
;WIDTH:0.42
G1 F900
G1 X20.577 Y21.617 E.05794
G1 X21.76 Y21.452 E.03745
G1 X28.86 Y21.452 E.22262
G1 X30.665 Y21.847 E.05793
G1 X32.14 Y22.961 E.05796
G1 X33.015 Y24.589 E.05795
G1 X33.18 Y25.772 E.03745
G1 X33.18 Y28.772 E.09406
G1 X32.784 Y30.577 E.05794
G1 X31.671 Y32.052 E.05794
G1 X30.042 Y32.927 E.05798
G1 X28.86 Y33.092 E.03742
G1 X21.76 Y33.092 E.22262
G1 X19.954 Y32.696 E.05797
G1 X18.48 Y31.582 E.05793
G1 X17.605 Y29.954 E.05795
G1 X17.44 Y28.772 E.03742
G1 X17.44 Y25.772 E.09406
G1 X17.835 Y23.966 E.05796
G1 X18.913 Y22.539 E.05607
G1 X19.226 Y22.791 F9000
G1 F900
G1 X19.318 Y22.676 E.00462
G1 X21.76 Y21.829 E.08104
G1 X28.86 Y21.829 E.22262
G1 X30.58 Y22.224 E.05533
G1 X31.955 Y23.33 E.05533
G1 X32.803 Y25.772 E.08105
G1 X32.803 Y28.772 E.09406
G1 X32.408 Y30.492 E.05533
G1 X31.302 Y31.867 E.05533
G1 X28.86 Y32.714 E.08104
G1 X21.76 Y32.714 E.22262
G1 X20.04 Y32.319 E.05533
G1 X18.665 Y31.214 E.05531
G1 X17.817 Y28.772 E.08105
G1 X17.817 Y25.772 E.09406
G1 X18.212 Y24.052 E.05533
G1 X19.188 Y22.837 E.04886
G1 X19.49 Y23.098 F9000
G1 F900
G1 X19.685 Y22.872 E.00936
G1 X21.76 Y22.206 E.06833
G1 X28.86 Y22.206 E.22262
G1 X30.49 Y22.6 E.05258
G1 X31.759 Y23.696 E.05257
G1 X32.425 Y25.772 E.06836
G1 X32.425 Y28.772 E.09406
G1 X32.031 Y30.402 E.05258
G1 X30.935 Y31.671 E.05257
G1 X28.86 Y32.337 E.06833
G1 X21.76 Y32.337 E.22262
G1 X20.13 Y31.943 E.05258
G1 X18.86 Y30.847 E.0526
G1 X18.194 Y28.772 E.06833
G1 X18.194 Y25.772 E.09406
G1 X18.589 Y24.142 E.05259
G1 X19.451 Y23.143 E.04137
G1 X19.738 Y23.413 F9000
G1 F900
G1 X20.049 Y23.081 E.01426
G1 X21.76 Y22.583 E.05587
G1 X28.86 Y22.583 E.22262
G1 X30.395 Y22.977 E.04969
G1 X31.551 Y24.061 E.04969
G1 X32.048 Y25.772 E.05586
G1 X32.048 Y28.772 E.09406
G1 X31.655 Y30.307 E.04968
G1 X30.571 Y31.462 E.04967
G1 X28.86 Y31.96 E.05587
G1 X21.76 Y31.96 E.22262
G1 X20.225 Y31.567 E.04968
G1 X19.069 Y30.483 E.04969
G1 X18.571 Y28.772 E.05587
G1 X18.571 Y25.772 E.09406
G1 X18.965 Y24.237 E.04969
G1 X19.697 Y23.456 E.03356
;WIPE_START
G1 F7200
G1 X19.738 Y23.413 E-.01411
G1 X20.049 Y23.081 E-.10804
G1 X21.76 Y22.583 E-.42323
G1 X22.832 Y22.583 E-.25462
;WIPE_END
G1 X28.123 Y28.035 F9000
G1 E.8 F1800
;TYPE:Perimeter
;WIDTH:0.419999
G1 F900
G1 X22.497 Y28.035 E.1764
G1 X22.497 Y26.509 E.04785
G1 X28.123 Y26.509 E.1764
G1 X28.123 Y27.975 E.04597
G1 X28.5 Y28.412 F9000
;TYPE:External perimeter
G1 F900
G1 X22.12 Y28.412 E.20004
G1 X22.12 Y26.132 E.07149
G1 X28.5 Y26.132 E.20004
G1 X28.5 Y28.352 E.06961
;WIPE_START
G1 F7200
G1 X28.5 Y28.412 E-.01425
G1 X25.192 Y28.412 E-.78575
;WIPE_END
G1 X28.002 Y27.435 F9000
G1 E.8 F1800
;TYPE:Solid infill
;WIDTH:0.44034
G1 F900
G1 X27.366 Y26.799 E.02972
G1 X26.804 Y26.799 E.01857
G1 X27.749 Y27.744 E.04416
G1 X27.187 Y27.744 E.01857
G1 X26.242 Y26.799 E.04416
G1 X25.68 Y26.799 E.01857
G1 X26.625 Y27.744 E.04416
G1 X26.063 Y27.744 E.01857
G1 X25.118 Y26.799 E.04416
G1 X24.556 Y26.799 E.01857
G1 X25.501 Y27.744 E.04416
G1 X24.939 Y27.744 E.01857
G1 X23.994 Y26.799 E.04416
G1 X23.432 Y26.799 E.01857
G1 X24.377 Y27.744 E.04416
G1 X23.815 Y27.744 E.01857
G1 X22.87 Y26.799 E.04416
G1 X22.787 Y26.799 E.00274
G1 X22.787 Y27.278 E.01583
G1 X23.423 Y27.914 E.02972
M106 S255
;LAYER_CHANGE
;Z:0.36
;HEIGHT:0.16
;BEFORE_LAYER_CHANGE
G92 E0
;0.36


;WIPE_START
G1 F7200
G1 X22.787 Y27.278 E-.21362
G1 X22.787 Y26.799 E-.11376
G1 X22.87 Y26.799 E-.01971
G1 X23.815 Y27.744 E-.3174
G1 X24.377 Y27.744 E-.13347
G1 X24.371 Y27.738 E-.00204
;WIPE_END
G1 Z.36 F9000
;AFTER_LAYER_CHANGE
;0.36
M104 S200 ; set temperature
G1 X23.423 Y33.092
G1 E.8 F1800
;TYPE:Skirt/Brim
;WIDTH:0.42
G1 F900
G1 X21.76 Y33.092 E.04266
G1 X19.954 Y32.696 E.04743
G1 X18.48 Y31.582 E.0474
G1 X17.605 Y29.954 E.04742
G1 X17.44 Y28.772 E.03062
G1 X17.44 Y25.772 E.07696
G1 X17.835 Y23.966 E.04743
G1 X18.949 Y22.491 E.04742
G1 X20.577 Y21.617 E.0474
G1 X21.76 Y21.452 E.03064
G1 X28.86 Y21.452 E.18215
G1 X30.665 Y21.847 E.0474
G1 X32.14 Y22.961 E.04742
G1 X33.015 Y24.589 E.04742
G1 X33.18 Y25.772 E.03064
G1 X33.18 Y28.772 E.07696
G1 X32.784 Y30.577 E.04741
G1 X31.671 Y32.052 E.0474
G1 X30.042 Y32.927 E.04744
G1 X28.86 Y33.092 E.03062
G1 X23.483 Y33.092 E.13794
G1 X23.483 Y32.714 F9000
G1 F900
G1 X21.76 Y32.714 E.0442
G1 X20.04 Y32.319 E.04527
G1 X18.665 Y31.214 E.04525
G1 X17.817 Y28.772 E.06632
G1 X17.817 Y25.772 E.07696
G1 X18.212 Y24.052 E.04527
G1 X19.318 Y22.676 E.04529
G1 X21.76 Y21.829 E.06631
G1 X28.86 Y21.829 E.18215
G1 X30.58 Y22.224 E.04527
G1 X31.955 Y23.33 E.04527
G1 X32.803 Y25.772 E.06632
G1 X32.803 Y28.772 E.07696
G1 X32.408 Y30.492 E.04527
G1 X31.302 Y31.867 E.04527
G1 X28.86 Y32.714 E.06631
G1 X23.543 Y32.714 E.1364
G1 X23.543 Y32.337 F9000
G1 F900
G1 X21.76 Y32.337 E.04574
G1 X20.13 Y31.943 E.04302
G1 X18.86 Y30.847 E.04304
G1 X18.194 Y28.772 E.05591
G1 X18.194 Y25.772 E.07696
G1 X18.589 Y24.142 E.04303
G1 X19.685 Y22.872 E.04304
G1 X21.76 Y22.206 E.05591
G1 X28.86 Y22.206 E.18215
G1 X30.49 Y22.6 E.04302
G1 X31.759 Y23.696 E.04302
G1 X32.425 Y25.772 E.05593
G1 X32.425 Y28.772 E.07696
G1 X32.031 Y30.402 E.04302
G1 X30.935 Y31.671 E.04302
G1 X28.86 Y32.337 E.05591
G1 X23.603 Y32.337 E.13487
G1 X23.603 Y31.96 F9000
G1 F900
G1 X21.76 Y31.96 E.04728
G1 X20.225 Y31.567 E.04065
G1 X19.069 Y30.483 E.04066
G1 X18.571 Y28.772 E.04572
G1 X18.571 Y25.772 E.07696
G1 X18.965 Y24.237 E.04066
G1 X20.049 Y23.081 E.04066
G1 X21.76 Y22.583 E.04572
G1 X28.86 Y22.583 E.18215
G1 X30.395 Y22.977 E.04066
G1 X31.551 Y24.061 E.04066
G1 X32.048 Y25.772 E.04571
G1 X32.048 Y28.772 E.07696
G1 X31.655 Y30.307 E.04065
G1 X30.571 Y31.462 E.04064
G1 X28.86 Y31.96 E.04572
G1 X23.663 Y31.96 E.13333
;WIPE_START
G1 F7200
G1 X23.603 Y31.96 E-.01425
G1 X21.76 Y31.96 E-.43771
G1 X20.34 Y31.596 E-.34804
;WIPE_END
G1 X28.254 Y28.166 F9000
G1 E.8 F1800
;TYPE:Perimeter
;WIDTH:0.439999
G1 F900
G1 X22.366 Y28.166 E.15889
G1 X22.366 Y26.377 E.04828
G1 X28.254 Y26.377 E.15889
G1 X28.254 Y28.106 E.04666
G1 X28.65 Y28.562 F9000
;TYPE:External perimeter
;WIDTH:0.419999
G1 F900
G1 X21.97 Y28.562 E.17137
G1 X21.97 Y25.982 E.06619
G1 X28.65 Y25.982 E.17137
G1 X28.65 Y28.502 E.06465
;WIPE_START
G1 F7200
G1 X28.65 Y28.562 E-.01425
G1 X25.342 Y28.562 E-.78575
;WIPE_END
G1 X27.739 Y26.69 F9000
G1 E.8 F1800
;TYPE:Solid infill
;WIDTH:0.439999
G1 F900
G1 X22.678 Y26.69 E.13657
G1 X22.678 Y27.854 E.03141
G1 X27.942 Y27.854 E.14205
G1 X27.942 Y26.69 E.03141
G1 X27.549 Y27.082 E.01498
;WIDTH:0.413482
G1 X27.549 Y27.461 E.00956
G1 X23.07 Y27.461 E.11296
G1 X23.07 Y27.082 E.00956
G1 X27.347 Y27.082 E.10787
;LAYER_CHANGE
;Z:0.52
;HEIGHT:0.16
;BEFORE_LAYER_CHANGE
G92 E0
;0.52


;WIPE_START
G1 F7200
G1 X23.979 Y27.082 E-.8
;WIPE_END
G1 Z.52 F9000
;AFTER_LAYER_CHANGE
;0.52
G1 X28.254 Y28.166
G1 E.8 F1800
;TYPE:Perimeter
;WIDTH:0.439999
G1 F900
G1 X22.366 Y28.166 E.15889
G1 X22.366 Y26.377 E.04828
G1 X28.254 Y26.377 E.15889
G1 X28.254 Y28.106 E.04666
G1 X28.65 Y28.562 F9000
;TYPE:External perimeter
;WIDTH:0.419999
G1 F900
G1 X21.97 Y28.562 E.17137
G1 X21.97 Y25.982 E.06619
G1 X28.65 Y25.982 E.17137
G1 X28.65 Y28.502 E.06465
;WIPE_START
G1 F7200
G1 X28.65 Y28.562 E-.01425
G1 X25.342 Y28.562 E-.78575
;WIPE_END
G1 X22.678 Y26.893 F9000
G1 E.8 F1800
;TYPE:Solid infill
;WIDTH:0.439999
G1 F900
G1 X22.678 Y27.854 E.02593
G1 X27.942 Y27.854 E.14205
G1 X27.942 Y26.69 E.03141
G1 X22.678 Y26.69 E.14205
G1 X23.07 Y27.082 E.01496
;WIDTH:0.413483
G1 X27.549 Y27.082 E.11296
G1 X27.549 Y27.461 E.00956
G1 X23.07 Y27.461 E.11296
G1 X23.07 Y27.285 E.00444
;LAYER_CHANGE
;Z:0.68
;HEIGHT:0.16
;BEFORE_LAYER_CHANGE
G92 E0
;0.68


;WIPE_START
G1 F7200
G1 X23.07 Y27.461 E-.0418
G1 X26.263 Y27.461 E-.7582
;WIPE_END
G1 Z.68 F9000
;AFTER_LAYER_CHANGE
;0.68
G1 X28.254 Y28.166
G1 E.8 F1800
;TYPE:Perimeter
;WIDTH:0.439999
G1 F900
G1 X22.366 Y28.166 E.15889
G1 X22.366 Y26.377 E.04828
G1 X28.254 Y26.377 E.15889
G1 X28.254 Y28.106 E.04666
G1 X28.65 Y28.562 F9000
;TYPE:External perimeter
;WIDTH:0.419999
G1 F900
G1 X21.97 Y28.562 E.17137
G1 X21.97 Y25.982 E.06619
G1 X28.65 Y25.982 E.17137
G1 X28.65 Y28.502 E.06465
;WIPE_START
G1 F7200
G1 X28.65 Y28.562 E-.01425
G1 X25.342 Y28.562 E-.78575
;WIPE_END
G1 X27.661 Y26.69 F9000
G1 E.8 F1800
;TYPE:Internal infill
;WIDTH:0.44
G1 F900
G1 X25.227 Y26.69 E.06568
G1 X24.065 Y27.854 E.04438
G1 X26.499 Y27.854 E.06568
;LAYER_CHANGE
;Z:0.84
;HEIGHT:0.16
;BEFORE_LAYER_CHANGE
G92 E0
;0.84


;WIPE_START
G1 F7200
G1 X24.065 Y27.854 E-.57807
G1 X24.725 Y27.193 E-.22193
;WIPE_END
G1 Z.84 F9000
;AFTER_LAYER_CHANGE
;0.84
G1 X28.254 Y28.166
G1 E.8 F1800
;TYPE:Perimeter
;WIDTH:0.439999
G1 F900
G1 X22.366 Y28.166 E.15889
G1 X22.366 Y26.377 E.04828
G1 X28.254 Y26.377 E.15889
G1 X28.254 Y28.106 E.04666
G1 X28.65 Y28.562 F9000
;TYPE:External perimeter
;WIDTH:0.419999
G1 F900
G1 X21.97 Y28.562 E.17137
G1 X21.97 Y25.982 E.06619
G1 X28.65 Y25.982 E.17137
G1 X28.65 Y28.502 E.06465
;WIPE_START
G1 F7200
G1 X28.65 Y28.562 E-.01425
G1 X25.342 Y28.562 E-.78575
;WIPE_END
G1 X27.504 Y26.69 F9000
G1 E.8 F1800
;TYPE:Internal infill
;WIDTH:0.44
G1 F900
G1 X25.07 Y26.69 E.06568
G1 X24.412 Y27.272 E.02371
G1 X23.879 Y27.854 E.0213
G1 X26.313 Y27.854 E.06568
;LAYER_CHANGE
;Z:1
;HEIGHT:0.16
;BEFORE_LAYER_CHANGE
G92 E0
;1


;WIPE_START
G1 F7200
G1 X23.879 Y27.854 E-.57807
G1 X24.412 Y27.272 E-.18743
G1 X24.521 Y27.176 E-.0345
;WIPE_END
G1 Z1 F9000
;AFTER_LAYER_CHANGE
;1
G1 X28.254 Y28.166
G1 E.8 F1800
;TYPE:Perimeter
;WIDTH:0.439999
G1 F900
G1 X22.366 Y28.166 E.15889
G1 X22.366 Y26.377 E.04828
G1 X28.254 Y26.377 E.15889
G1 X28.254 Y28.106 E.04666
G1 X28.65 Y28.562 F9000
;TYPE:External perimeter
;WIDTH:0.419999
G1 F900
G1 X21.97 Y28.562 E.17137
G1 X21.97 Y25.982 E.06619
G1 X28.65 Y25.982 E.17137
G1 X28.65 Y28.502 E.06465
;WIPE_START
G1 F7200
G1 X28.65 Y28.562 E-.01425
G1 X25.342 Y28.562 E-.78575
;WIPE_END
G1 X27.337 Y26.69 F9000
G1 E.8 F1800
;TYPE:Internal infill
;WIDTH:0.44
G1 F900
G1 X24.903 Y26.69 E.06568
G1 X24.207 Y27.272 E.02448
G1 X23.676 Y27.854 E.02126
G1 X26.11 Y27.854 E.06568
;LAYER_CHANGE
;Z:1.16
;HEIGHT:0.16
;BEFORE_LAYER_CHANGE
G92 E0
;1.16


;WIPE_START
G1 F7200
G1 X23.676 Y27.854 E-.57807
G1 X24.207 Y27.272 E-.18711
G1 X24.32 Y27.178 E-.03482
;WIPE_END
G1 Z1.16 F9000
;AFTER_LAYER_CHANGE
;1.16
G1 X28.254 Y28.166
G1 E.8 F1800
;TYPE:Perimeter
;WIDTH:0.439999
G1 F900
G1 X22.366 Y28.166 E.15889
G1 X22.366 Y26.377 E.04828
G1 X28.254 Y26.377 E.15889
G1 X28.254 Y28.106 E.04666
G1 X28.65 Y28.562 F9000
;TYPE:External perimeter
;WIDTH:0.419999
G1 F900
G1 X21.97 Y28.562 E.17137
G1 X21.97 Y25.982 E.06619
G1 X28.65 Y25.982 E.17137
G1 X28.65 Y28.502 E.06465
;WIPE_START
G1 F7200
G1 X28.65 Y28.562 E-.01425
G1 X25.342 Y28.562 E-.78575
;WIPE_END
G1 X27.157 Y26.69 F9000
G1 E.8 F1800
;TYPE:Internal infill
;WIDTH:0.44
G1 F900
G1 X24.723 Y26.69 E.06568
G1 X23.979 Y27.272 E.02549
G1 X23.452 Y27.854 E.02119
G1 X25.886 Y27.854 E.06568
;LAYER_CHANGE
;Z:1.32
;HEIGHT:0.16
;BEFORE_LAYER_CHANGE
G92 E0
;1.32


;WIPE_START
G1 F7200
G1 X23.452 Y27.854 E-.57807
G1 X23.979 Y27.272 E-.18647
G1 X24.097 Y27.18 E-.03546
;WIPE_END
G1 Z1.32 F9000
;AFTER_LAYER_CHANGE
;1.32
G1 X28.254 Y28.166
G1 E.8 F1800
;TYPE:Perimeter
;WIDTH:0.439999
G1 F900
G1 X22.366 Y28.166 E.15889
G1 X22.366 Y26.377 E.04828
G1 X28.254 Y26.377 E.15889
G1 X28.254 Y28.106 E.04666
G1 X28.65 Y28.562 F9000
;TYPE:External perimeter
;WIDTH:0.419999
G1 F900
G1 X21.97 Y28.562 E.17137
G1 X21.97 Y25.982 E.06619
G1 X28.65 Y25.982 E.17137
G1 X28.65 Y28.502 E.06465
;WIPE_START
G1 F7200
G1 X28.65 Y28.562 E-.01425
G1 X25.342 Y28.562 E-.78575
;WIPE_END
G1 X26.957 Y26.69 F9000
G1 E.8 F1800
;TYPE:Internal infill
;WIDTH:0.44
G1 F900
G1 X24.523 Y26.69 E.06568
G1 X23.718 Y27.272 E.02681
G1 X23.198 Y27.854 E.02106
G1 X25.632 Y27.854 E.06568
;LAYER_CHANGE
;Z:1.48
;HEIGHT:0.16
;BEFORE_LAYER_CHANGE
G92 E0
;1.48


;WIPE_START
G1 F7200
G1 X23.198 Y27.854 E-.57808
G1 X23.718 Y27.272 E-.18536
G1 X23.843 Y27.182 E-.03656
;WIPE_END
G1 Z1.48 F9000
;AFTER_LAYER_CHANGE
;1.48
G1 X28.254 Y28.166
G1 E.8 F1800
;TYPE:Perimeter
;WIDTH:0.439999
G1 F900
G1 X22.366 Y28.166 E.15889
G1 X22.366 Y26.377 E.04828
G1 X28.254 Y26.377 E.15889
G1 X28.254 Y28.106 E.04666
G1 X28.65 Y28.562 F9000
;TYPE:External perimeter
;WIDTH:0.419999
G1 F900
G1 X21.97 Y28.562 E.17137
G1 X21.97 Y25.982 E.06619
G1 X28.65 Y25.982 E.17137
G1 X28.65 Y28.502 E.06465
;WIPE_START
G1 F7200
G1 X28.65 Y28.562 E-.01425
G1 X25.342 Y28.562 E-.78575
;WIPE_END
G1 X26.726 Y26.69 F9000
G1 E.8 F1800
;TYPE:Internal infill
;WIDTH:0.44
G1 F900
G1 X24.292 Y26.69 E.06568
G1 X23.405 Y27.272 E.02863
G1 X22.901 Y27.854 E.02078
G1 X25.335 Y27.854 E.06568
;LAYER_CHANGE
;Z:1.64
;HEIGHT:0.16
;BEFORE_LAYER_CHANGE
G92 E0
;1.64


;WIPE_START
G1 F7200
G1 X22.901 Y27.854 E-.57808
G1 X23.405 Y27.272 E-.18285
G1 X23.542 Y27.182 E-.03907
;WIPE_END
G1 Z1.64 F9000
;AFTER_LAYER_CHANGE
;1.64
G1 X28.254 Y28.166
G1 E.8 F1800
;TYPE:Perimeter
;WIDTH:0.439999
G1 F900
G1 X22.366 Y28.166 E.15889
G1 X22.366 Y26.377 E.04828
G1 X28.254 Y26.377 E.15889
G1 X28.254 Y28.106 E.04666
G1 X28.65 Y28.562 F9000
;TYPE:External perimeter
;WIDTH:0.419999
G1 F900
G1 X21.97 Y28.562 E.17137
G1 X21.97 Y25.982 E.06619
G1 X28.65 Y25.982 E.17137
G1 X28.65 Y28.502 E.06465
;WIPE_START
G1 F7200
G1 X28.65 Y28.562 E-.01425
G1 X25.342 Y28.562 E-.78575
;WIPE_END
G1 X23.357 Y26.69 F9000
G1 E.8 F1800
;TYPE:Solid infill
;WIDTH:0.439999
G1 F900
G1 X27.262 Y26.69 E.10538
G1 X27.262 Y27.854 E.03141
G1 X23.357 Y27.854 E.10538
G1 X23.357 Y26.893 E.02593
G1 X23.75 Y27.095 E.01192
;WIDTH:0.413483
G1 X23.75 Y27.461 E.00923
G1 X26.87 Y27.461 E.07869
G1 X26.87 Y27.082 E.00956
G1 X23.939 Y27.082 E.07392
G1 X22.952 Y27.123 F9000
;TYPE:Internal infill
;WIDTH:0.44
G1 F900
G1 X22.952 Y26.69 E.01168
G1 X22.678 Y26.69 E.00739
G1 X22.678 Y27.625 E.02523
G1 X22.952 Y27.325 E.01096
G1 X22.952 Y27.854 E.01427
G1 X22.678 Y27.828 E.00743
;LAYER_CHANGE
;Z:1.8
;HEIGHT:0.16
;BEFORE_LAYER_CHANGE
G92 E0
;1.8


;WIPE_START
G1 F7200
G1 X22.952 Y27.854 E-.06537
G1 X22.952 Y27.325 E-.12564
G1 X22.678 Y27.625 E-.0965
G1 X22.678 Y26.69 E-.22206
G1 X22.952 Y26.69 E-.06508
G1 X22.952 Y27.123 E-.10284
;WIPE_END
G1 E-.12251 F1800
G1 Z1.8 F9000
;AFTER_LAYER_CHANGE
;1.8
G1 X28.254 Y28.166
G1 E.8 F1800
;TYPE:Perimeter
;WIDTH:0.439999
G1 F900
G1 X22.366 Y28.166 E.15889
G1 X22.366 Y26.377 E.04828
G1 X28.254 Y26.377 E.15889
G1 X28.254 Y28.106 E.04666
G1 X28.65 Y28.562 F9000
;TYPE:External perimeter
;WIDTH:0.419999
G1 F900
G1 X21.97 Y28.562 E.17137
G1 X21.97 Y25.982 E.06619
G1 X28.65 Y25.982 E.17137
G1 X28.65 Y28.502 E.06465
;WIPE_START
G1 F7200
G1 X28.65 Y28.562 E-.01425
G1 X25.342 Y28.562 E-.78575
;WIPE_END
G1 X22.678 Y26.893 F9000
G1 E.8 F1800
;TYPE:Solid infill
;WIDTH:0.439999
G1 F900
G1 X22.678 Y27.854 E.02593
G1 X27.942 Y27.854 E.14205
G1 X27.942 Y26.69 E.03141
G1 X22.678 Y26.69 E.14205
G1 X23.07 Y27.082 E.01496
;WIDTH:0.413483
G1 X27.549 Y27.082 E.11296
G1 X27.549 Y27.461 E.00956
G1 X23.07 Y27.461 E.11296
G1 X23.07 Y27.285 E.00444
