; generated by PrusaSlicer 2.9.4 on 2026-03-11 at 06:10:48 UTC

; 

; external perimeters extrusion width = 0.42mm
; perimeters extrusion width = 0.44mm
; infill extrusion width = 0.44mm
; solid infill extrusion width = 0.44mm
; top infill extrusion width = 0.40mm
; support material extrusion width = 0.36mm
; first layer extrusion width = 0.42mm

;TYPE:Custom
G90 ; use absolute coordinates
M83 ; extruder relative mode
M140 S60 ; set final bed temp
M104 S150 ; set temporary nozzle temp to prevent oozing during homing and auto bed leveling
G4 S10 ; allow partial nozzle warmup
G28 ; home all axis

G1 Z50 F240
G1 X2 Y10 F3000
M104 S210 ; set final nozzle temp
M190 S60 ; wait for bed temp to stabilize
M109 S210 ; wait for nozzle temp to stabilize
G1 Z0.28 F240
G92 E0
G1 Y140 E10 F1500 ; prime the nozzle
G1 X2.3 F5000
G92 E0
G1 Y10 E10 F1200 ; prime the nozzle
G92 E0

M300 S300 P200 ; beep
G21 ; set units to millimeters
G90 ; use absolute coordinates
M83 ; use relative distances for extrusion
; Filament gcode

; play sound when print starts
M300 S523 P100
M107
;LAYER_CHANGE
;Z:0.2
;HEIGHT:0.2
G1 E-.8 F1800
G1 Z.2 F9000
G1 X39.46 Y37.151
G1 E.8 F1800
M204 S500
;TYPE:Skirt/Brim
;WIDTH:0.42
G1 F1200
G1 X39.935 Y36.731 E.01988
G1 X40.779 Y36.27 E.03015
G1 X41.241 Y36.129 E.01515
G1 X42.051 Y36.034 E.02557
G1 X116.177 Y36.057 E2.32417
G1 X157.488 Y41.061 E1.30475
G1 X158.196 Y41.225 E.02279
G1 X158.714 Y41.447 E.01767
G1 X159.503 Y42.013 E.03045
G1 X159.923 Y42.487 E.01986
G1 X160.403 Y43.382 E.03184
G1 X160.541 Y43.863 E.01569
G1 X160.619 Y44.603 E.02333
G1 X160.619 Y94.603 E1.56771
G1 X160.551 Y95.292 E.02171
G1 X160.411 Y95.8 E.01652
G1 X159.964 Y96.662 E.03045
G1 X159.593 Y97.106 E.01814
G1 X158.784 Y97.721 E.03186
G1 X158.086 Y98.018 E.02378
G1 X121.682 Y109.092 E1.19306
G1 X103.82 Y114.055 E.58127
G1 X102.966 Y114.171 E.02702
G1 X86.958 Y114.152 E.50192
G1 X50.647 Y110.148 E1.14541
G1 X49.905 Y109.981 E.02385
G1 X49.436 Y109.784 E.01595
G1 X48.598 Y109.193 E.03215
G1 X47.907 Y108.289 E.03568
G1 X47.538 Y107.227 E.03525
G1 X38.532 Y56.908 E1.60279
G1 X38.49 Y39.376 E.54971
G1 X38.697 Y38.389 E.03162
G1 X38.928 Y37.877 E.01761
G1 X39.425 Y37.199 E.02636
;WIPE_START
G1 F7200
G1 X39.46 Y37.151 E-.01411
G1 X39.935 Y36.731 E-.15059
G1 X40.779 Y36.27 E-.2284
G1 X41.241 Y36.129 E-.11472
G1 X42.051 Y36.034 E-.19369
G1 X42.466 Y36.034 E-.09849
;WIPE_END
G1 X87.488 Y78.283 F9000
G1 E.8 F1800
;TYPE:Perimeter
;WIDTH:0.419999
G1 F1200
G1 X87.589 Y78.196 E.00418
G1 X87.879 Y78.116 E.00943
G1 X102.222 Y78.116 E.44971
G1 X102.512 Y78.196 E.00943
G1 X102.656 Y78.318 E.00592
G1 X102.752 Y78.483 E.00599
G1 X102.788 Y78.681 E.00631
G1 X102.788 Y93.024 E.44971
G1 X102.752 Y93.223 E.00634
G1 X102.656 Y93.387 E.00596
G1 X102.512 Y93.51 E.00594
G1 X102.222 Y93.59 E.00943
G1 X87.879 Y93.59 E.44971
G1 X87.589 Y93.51 E.00943
G1 X87.446 Y93.387 E.00591
G1 X87.314 Y93.104 E.00979
G1 X87.314 Y78.681 E.45222
G1 X87.35 Y78.483 E.00631
G1 X87.443 Y78.322 E.00583
G1 X87.771 Y78.544 F9000
;TYPE:External perimeter
G1 F1200
G1 X87.879 Y78.493 E.00374
G1 X102.222 Y78.493 E.44971
G1 X102.367 Y78.56 E.00501
G1 X102.411 Y78.681 E.00404
G1 X102.411 Y93.024 E.44971
G1 X102.367 Y93.145 E.00404
G1 X102.222 Y93.213 E.00502
G1 X87.879 Y93.213 E.44971
G1 X87.735 Y93.145 E.00499
G1 X87.691 Y93.024 E.00404
G1 X87.691 Y78.681 E.44971
G1 X87.728 Y78.58 E.00337
;WIPE_START
G1 F7200
G1 X87.771 Y78.544 E-.01332
G1 X87.879 Y78.493 E-.02837
G1 X91.072 Y78.493 E-.75831
;WIPE_END
G1 X120.614 Y74.033 F9000
G1 E.8 F1800
;TYPE:Perimeter
G1 F1200
G1 X120.656 Y74.068 E.00171
G1 X120.752 Y74.233 E.00599
G1 X120.788 Y74.431 E.00631
G1 X120.788 Y88.774 E.44971
G1 X120.752 Y88.973 E.00634
G1 X120.656 Y89.137 E.00596
G1 X120.512 Y89.26 E.00594
G1 X120.222 Y89.34 E.00943
G1 X105.879 Y89.34 E.44971
G1 X105.589 Y89.26 E.00943
G1 X105.446 Y89.137 E.00591
G1 X105.314 Y88.854 E.00979
G1 X105.314 Y74.431 E.45222
G1 X105.35 Y74.233 E.00631
G1 X105.446 Y74.068 E.00599
G1 X105.589 Y73.946 E.00589
G1 X105.879 Y73.866 E.00943
G1 X120.222 Y73.866 E.44971
G1 X120.512 Y73.946 E.00943
G1 X120.568 Y73.994 E.00231
G1 X120.331 Y74.294 F9000
;TYPE:External perimeter
G1 F1200
G1 X120.367 Y74.31 E.00124
G1 X120.411 Y74.431 E.00404
G1 X120.411 Y88.774 E.44971
G1 X120.367 Y88.895 E.00404
G1 X120.222 Y88.963 E.00502
G1 X105.879 Y88.963 E.44971
G1 X105.735 Y88.895 E.00499
G1 X105.691 Y88.774 E.00404
G1 X105.691 Y74.431 E.44971
G1 X105.735 Y74.31 E.00404
G1 X105.879 Y74.243 E.00498
G1 X120.222 Y74.243 E.44971
G1 X120.277 Y74.268 E.00189
;WIPE_START
G1 F7200
G1 X120.331 Y74.294 E-.01423
G1 X120.367 Y74.31 E-.00936
G1 X120.411 Y74.431 E-.03058
G1 X120.411 Y77.571 E-.74583
;WIPE_END
G1 X102.62 Y61.293 F9000
G1 E.8 F1800
;TYPE:Perimeter
G1 F1200
G1 X102.728 Y61.429 E.00545
G1 X102.788 Y61.681 E.00812
G1 X102.788 Y76.024 E.44971
G1 X102.752 Y76.223 E.00634
G1 X102.656 Y76.387 E.00596
G1 X102.512 Y76.51 E.00594
G1 X102.222 Y76.59 E.00943
G1 X87.879 Y76.59 E.44971
G1 X87.589 Y76.51 E.00943
G1 X87.446 Y76.387 E.00591
G1 X87.314 Y76.104 E.00979
G1 X87.314 Y61.681 E.45222
G1 X87.373 Y61.429 E.00811
G1 X87.52 Y61.245 E.00738
G1 X87.691 Y61.148 E.00616
G1 X87.879 Y61.116 E.00598
G1 X102.222 Y61.116 E.44971
G1 X102.41 Y61.148 E.00598
G1 X102.582 Y61.245 E.00619
G1 X102.36 Y61.573 F9000
;TYPE:External perimeter
G1 F1200
G1 X102.411 Y61.681 E.00374
G1 X102.411 Y76.024 E.44971
G1 X102.367 Y76.145 E.00404
G1 X102.222 Y76.213 E.00502
G1 X87.879 Y76.213 E.44971
G1 X87.735 Y76.145 E.00499
G1 X87.691 Y76.024 E.00404
G1 X87.691 Y61.681 E.44971
G1 X87.759 Y61.536 E.00502
G1 X87.879 Y61.493 E.004
G1 X102.222 Y61.493 E.44971
G1 X102.324 Y61.529 E.00339
;WIPE_START
G1 F7200
G1 X102.36 Y61.573 E-.0135
G1 X102.411 Y61.681 E-.02837
G1 X102.411 Y64.873 E-.75813
;WIPE_END
G1 X120.614 Y72.173 F9000
G1 E.8 F1800
;TYPE:Perimeter
G1 F1200
G1 X120.512 Y72.26 E.0042
G1 X120.222 Y72.34 E.00943
G1 X105.879 Y72.34 E.44971
G1 X105.589 Y72.26 E.00943
G1 X105.446 Y72.137 E.00591
G1 X105.314 Y71.854 E.00979
G1 X105.314 Y57.431 E.45222
G1 X105.357 Y57.214 E.00694
G1 X105.54 Y56.979 E.00934
G1 X105.879 Y56.866 E.0112
G1 X120.222 Y56.866 E.44971
G1 X120.403 Y56.896 E.00575
G1 X120.577 Y56.991 E.00622
G1 X120.727 Y57.176 E.00747
G1 X120.788 Y57.431 E.00822
G1 X120.788 Y71.774 E.44971
G1 X120.752 Y71.973 E.00634
G1 X120.658 Y72.133 E.00582
G1 X120.331 Y71.912 F9000
;TYPE:External perimeter
G1 F1200
G1 X120.222 Y71.963 E.00377
G1 X105.879 Y71.963 E.44971
G1 X105.735 Y71.895 E.00499
G1 X105.691 Y71.774 E.00404
G1 X105.691 Y57.431 E.44971
G1 X105.766 Y57.281 E.00526
G1 X105.879 Y57.243 E.00374
G1 X120.222 Y57.243 E.44971
G1 X120.341 Y57.285 E.00396
G1 X120.411 Y57.431 E.00508
G1 X120.411 Y71.774 E.44971
G1 X120.374 Y71.876 E.0034
;WIPE_START
G1 F7200
G1 X120.331 Y71.912 E-.01332
G1 X120.222 Y71.963 E-.02858
G1 X117.03 Y71.963 E-.7581
;WIPE_END
G1 X111.357 Y54.883 F9000
G1 E.8 F1800
G1 F1200
G1 X111.335 Y54.925 E.00149
G1 X111.222 Y54.963 E.00374
G1 X96.879 Y54.963 E.44971
G1 X96.738 Y54.899 E.00486
G1 X96.691 Y54.774 E.00419
G1 X96.691 Y40.431 E.44971
;WIDTH:0.44573
G1 X96.767 Y40.324 E.0044
;WIDTH:0.47146
G1 X96.843 Y40.217 E.00468
G1 X111.222 Y40.217 E.51237
G1 X111.317 Y40.324 E.0051
;WIDTH:0.44573
G1 X111.411 Y40.432 E.0048
;WIDTH:0.419999
G1 X111.409 Y46.103 E.17781
;WIDTH:0.436931
G1 X111.363 Y47.571 E.04812
G1 X111.409 Y49.097 E.05002
;WIDTH:0.419999
G1 X111.411 Y54.774 E.178
G1 X111.383 Y54.829 E.00194
;WIPE_START
G1 F7200
G1 X111.357 Y54.883 E-.01423
G1 X111.335 Y54.925 E-.01126
G1 X111.222 Y54.963 E-.02831
G1 X108.08 Y54.963 E-.7462
;WIPE_END
G1 X93.357 Y54.883 F9000
G1 E.8 F1800
G1 F1200
G1 X93.336 Y54.925 E.00147
G1 X93.222 Y54.963 E.00377
G1 X78.879 Y54.963 E.44971
G1 X78.763 Y54.923 E.00385
G1 X78.691 Y54.825 E.00381
G1 X78.691 Y40.431 E.45131
;WIDTH:0.44573
G1 X78.767 Y40.324 E.0044
;WIDTH:0.47146
G1 X78.843 Y40.217 E.00468
G1 X93.222 Y40.217 E.51237
G1 X93.317 Y40.324 E.0051
;WIDTH:0.44573
G1 X93.411 Y40.431 E.00477
;WIDTH:0.419999
G1 X93.411 Y54.774 E.44971
G1 X93.384 Y54.829 E.00192
;WIPE_START
G1 F7200
G1 X93.357 Y54.883 E-.01434
G1 X93.336 Y54.925 E-.01115
G1 X93.222 Y54.963 E-.02854
G1 X90.081 Y54.963 E-.74597
;WIPE_END
G1 X60.744 Y54.883 F9000
G1 E.8 F1800
G1 F1200
G1 X60.691 Y54.774 E.0038
G1 X60.691 Y40.431 E.44971
;WIDTH:0.44573
G1 X60.767 Y40.324 E.0044
;WIDTH:0.47146
G1 X60.843 Y40.217 E.00468
G1 X75.222 Y40.217 E.51237
G1 X75.317 Y40.324 E.0051
;WIDTH:0.44573
G1 X75.411 Y40.431 E.00477
;WIDTH:0.419999
G1 X75.411 Y54.774 E.44971
G1 X75.338 Y54.923 E.0052
G1 X75.222 Y54.963 E.00385
G1 X60.879 Y54.963 E.44971
G1 X60.778 Y54.928 E.00335
;WIPE_START
G1 F7200
G1 X60.744 Y54.883 E-.0134
G1 X60.691 Y54.774 E-.02879
G1 X60.691 Y51.583 E-.75781
;WIPE_END
G1 X84.614 Y72.173 F9000
G1 E.8 F1800
;TYPE:Perimeter
G1 F1200
G1 X84.512 Y72.26 E.0042
G1 X84.222 Y72.34 E.00943
G1 X69.879 Y72.34 E.44971
G1 X69.559 Y72.24 E.01051
G1 X69.422 Y72.107 E.00599
G1 X69.314 Y71.818 E.00967
G1 X69.314 Y57.431 E.45109
G1 X69.351 Y57.229 E.00644
G1 X69.531 Y56.986 E.00948
G1 X69.879 Y56.866 E.01154
G1 X84.222 Y56.866 E.44971
G1 X84.562 Y56.979 E.01123
G1 X84.744 Y57.214 E.00932
G1 X84.788 Y57.431 E.00694
G1 X84.788 Y71.774 E.44971
G1 X84.752 Y71.973 E.00634
G1 X84.658 Y72.133 E.00582
G1 X84.331 Y71.912 F9000
;TYPE:External perimeter
G1 F1200
G1 X84.222 Y71.963 E.00377
G1 X69.879 Y71.963 E.44971
G1 X69.727 Y71.885 E.00536
G1 X69.691 Y71.774 E.00366
G1 X69.691 Y57.431 E.44971
G1 X69.763 Y57.283 E.00516
G1 X69.879 Y57.243 E.00385
G1 X84.222 Y57.243 E.44971
G1 X84.335 Y57.281 E.00374
G1 X84.411 Y57.431 E.00527
G1 X84.411 Y71.774 E.44971
G1 X84.374 Y71.876 E.0034
;WIPE_START
G1 F7200
G1 X84.331 Y71.912 E-.01332
G1 X84.222 Y71.963 E-.02858
G1 X81.03 Y71.963 E-.7581
;WIPE_END
G1 X84.614 Y89.173 F9000
G1 E.8 F1800
;TYPE:Perimeter
G1 F1200
G1 X84.512 Y89.26 E.0042
G1 X84.222 Y89.34 E.00943
G1 X69.879 Y89.34 E.44971
G1 X69.559 Y89.24 E.01051
G1 X69.422 Y89.107 E.00599
G1 X69.314 Y88.818 E.00967
G1 X69.314 Y74.431 E.45109
G1 X69.348 Y74.238 E.00614
G1 X69.422 Y74.099 E.00494
G1 X69.559 Y73.965 E.00601
G1 X69.879 Y73.866 E.0105
G1 X84.222 Y73.866 E.44971
G1 X84.512 Y73.946 E.00943
G1 X84.656 Y74.068 E.00592
G1 X84.752 Y74.233 E.00599
G1 X84.788 Y74.431 E.00631
G1 X84.788 Y88.774 E.44971
G1 X84.752 Y88.973 E.00634
G1 X84.658 Y89.133 E.00582
G1 X84.331 Y88.912 F9000
;TYPE:External perimeter
G1 F1200
G1 X84.222 Y88.963 E.00377
G1 X69.879 Y88.963 E.44971
G1 X69.727 Y88.885 E.00536
G1 X69.691 Y88.774 E.00366
G1 X69.691 Y74.431 E.44971
G1 X69.727 Y74.321 E.00363
G1 X69.879 Y74.243 E.00536
G1 X84.222 Y74.243 E.44971
G1 X84.367 Y74.31 E.00501
G1 X84.411 Y74.431 E.00404
G1 X84.411 Y88.774 E.44971
G1 X84.374 Y88.876 E.0034
;WIPE_START
G1 F7200
G1 X84.331 Y88.912 E-.01332
G1 X84.222 Y88.963 E-.02858
G1 X81.03 Y88.963 E-.7581
;WIPE_END
G1 X69.778 Y105.873 F9000
G1 E.8 F1800
;WIDTH:0.468845
G1 F1200
G1 X69.691 Y105.774 E.00467
;WIDTH:0.419999
G1 X69.691 Y91.431 E.44971
G1 X69.727 Y91.321 E.00363
G1 X69.879 Y91.243 E.00536
G1 X84.222 Y91.243 E.44971
G1 X84.367 Y91.31 E.00501
G1 X84.411 Y91.431 E.00404
G1 X84.411 Y105.774 E.44971
G1 X84.351 Y105.912 E.00472
G1 X84.222 Y105.963 E.00435
;WIDTH:0.44573
G1 X83.838 Y105.976 E.01287
;WIDTH:0.471461
G1 X83.453 Y105.989 E.01373
G1 X69.879 Y105.987 E.48369
;WIDTH:0.468845
G1 X69.818 Y105.918 E.00326
;WIPE_START
G1 F7200
G1 X69.778 Y105.873 E-.0143
G1 X69.691 Y105.774 E-.0313
G1 X69.691 Y102.598 E-.7544
;WIPE_END
G1 X51.762 Y105.961 F9000
G1 E.8 F1800
;WIDTH:0.541412
G1 F1200
G1 X51.7 Y105.948 E.00263
G1 X51.683 Y105.876 E.00307
;WIDTH:0.506436
G1 X51.665 Y105.805 E.00282
;WIDTH:0.47146
G1 X51.665 Y91.431 E.51219
G1 X51.772 Y91.337 E.00508
;WIDTH:0.44573
G1 X51.879 Y91.243 E.00477
;WIDTH:0.419999
G1 X66.222 Y91.243 E.44971
G1 X66.375 Y91.321 E.00538
G1 X66.411 Y91.431 E.00363
G1 X66.411 Y105.774 E.44971
;WIDTH:0.46814
G1 X66.258 Y105.987 E.00927
G1 X51.879 Y105.986 E.5084
;WIDTH:0.503394
G1 X51.82 Y105.973 E.00231
;WIPE_START
G1 F7200
G1 X51.762 Y105.961 E-.01407
G1 X51.7 Y105.948 E-.01505
G1 X51.683 Y105.876 E-.01757
G1 X51.665 Y105.805 E-.0174
G1 X51.665 Y102.707 E-.73591
;WIPE_END
G1 X66.331 Y88.908 F9000
G1 E.8 F1800
;WIDTH:0.419999
G1 F1200
G1 X66.222 Y88.963 E.00383
G1 X51.879 Y88.963 E.44971
;WIDTH:0.44573
G1 X51.772 Y88.887 E.0044
;WIDTH:0.47146
G1 X51.665 Y88.811 E.00468
G1 X51.665 Y74.431 E.51241
G1 X51.772 Y74.337 E.00508
;WIDTH:0.44573
G1 X51.879 Y74.243 E.00477
;WIDTH:0.419999
G1 X66.222 Y74.243 E.44971
G1 X66.375 Y74.321 E.00538
G1 X66.411 Y74.431 E.00363
G1 X66.411 Y88.774 E.44971
G1 X66.378 Y88.875 E.00333
;WIPE_START
G1 F7200
G1 X66.331 Y88.908 E-.01364
G1 X66.222 Y88.963 E-.029
G1 X63.033 Y88.963 E-.75736
;WIPE_END
G1 X51.745 Y57.323 F9000
G1 E.8 F1800
G1 F1200
G1 X51.766 Y57.281 E.00147
G1 X51.853 Y57.243 E.00298
G1 X66.222 Y57.243 E.45053
G1 X66.338 Y57.283 E.00385
G1 X66.411 Y57.431 E.00517
G1 X66.411 Y71.774 E.44971
G1 X66.375 Y71.885 E.00366
G1 X66.222 Y71.963 E.00538
G1 X51.879 Y71.963 E.44971
;WIDTH:0.44573
G1 X51.772 Y71.887 E.0044
;WIDTH:0.47146
G1 X51.665 Y71.811 E.00468
G1 X51.665 Y65.201 E.23554
G1 X51.688 Y64.845 E.01271
;WIDTH:0.424817
G1 X51.691 Y58.079 E.21485
;WIDTH:0.419999
G1 X51.691 Y57.431 E.02032
G1 X51.718 Y57.376 E.00192
;WIPE_START
G1 F7200
G1 X51.745 Y57.323 E-.01413
G1 X51.766 Y57.281 E-.01115
G1 X51.853 Y57.243 E-.02255
G1 X55.02 Y57.243 E-.75217
;WIPE_END
G1 X57.358 Y54.883 F9000
G1 E.8 F1800
G1 F1200
G1 X57.338 Y54.923 E.0014
G1 X57.222 Y54.963 E.00385
G1 X42.879 Y54.963 E.44971
;WIDTH:0.44546
G1 X42.772 Y54.887 E.00439
;WIDTH:0.470921
G1 X42.665 Y54.81 E.00469
G1 X42.668 Y40.431 E.51173
;WIDTH:0.5035
G1 X42.687 Y40.342 E.00349
;WIDTH:0.541465
G1 X42.706 Y40.252 E.00381
G1 X42.793 Y40.235 E.00367
;WIDTH:0.506463
G1 X42.879 Y40.217 E.00339
;WIDTH:0.47146
G1 X57.222 Y40.217 E.51109
G1 X57.317 Y40.324 E.0051
;WIDTH:0.44573
G1 X57.411 Y40.431 E.00477
;WIDTH:0.419999
G1 X57.411 Y54.774 E.44971
G1 X57.384 Y54.829 E.00192
;WIPE_START
G1 F7200
G1 X57.358 Y54.883 E-.01423
G1 X57.338 Y54.923 E-.01062
G1 X57.222 Y54.963 E-.02914
G1 X54.081 Y54.963 E-.74601
;WIPE_END
G1 X120.35 Y48.203 F9000
G1 E.8 F1800
G1 F1200
G1 X120.334 Y48.411 E.00654
G1 X120.057 Y49.321 E.02982
G1 X119.589 Y50.149 E.02982
G1 X119.123 Y50.695 E.02251
G1 X118.383 Y51.285 E.02967
G1 X117.747 Y51.619 E.02252
G1 X117.069 Y51.842 E.02238
G1 X116.131 Y51.961 E.02965
G1 X115.184 Y51.875 E.02981
G1 X114.494 Y51.675 E.02252
G1 X113.652 Y51.243 E.02967
G1 X112.92 Y50.636 E.02982
G1 X112.337 Y49.885 E.02981
G1 X112.013 Y49.244 E.02252
;WIDTH:0.438197
G1 X111.8 Y48.559 E.02358
G1 X111.74 Y47.616 E.03106
;WIDTH:0.436931
G1 X111.793 Y46.688 E.03045
G1 X111.942 Y46.194 E.0169
;WIDTH:0.419999
G1 X112.013 Y45.962 E.00761
G1 X112.318 Y45.351 E.02141
G1 X112.892 Y44.599 E.02966
G1 X113.428 Y44.121 E.02252
G1 X114.241 Y43.637 E.02967
G1 X115.144 Y43.339 E.02981
G1 X116.075 Y43.244 E.02934
G1 X116.805 Y43.309 E.02298
G1 X117.714 Y43.574 E.02969
G1 X118.353 Y43.901 E.02251
G1 X119.098 Y44.485 E.02968
G1 X119.568 Y45.028 E.02252
G1 X120.03 Y45.829 E.02899
G1 X120.275 Y46.527 E.02319
G1 X120.408 Y47.463 E.02964
G1 X120.355 Y48.143 E.02139
;WIPE_START
G1 F7200
G1 X120.35 Y48.203 E-.0143
G1 X120.334 Y48.411 E-.04955
G1 X120.057 Y49.321 E-.22592
G1 X119.589 Y50.149 E-.22589
G1 X119.123 Y50.695 E-.17048
G1 X118.748 Y50.994 E-.11386
;WIPE_END
G1 X138.331 Y60.158 F9000
G1 E.8 F1800
G1 F1200
G1 X138.222 Y60.213 E.00383
G1 X123.879 Y60.213 E.44971
G1 X123.735 Y60.145 E.00499
G1 X123.691 Y60.024 E.00404
G1 X123.691 Y45.681 E.44971
G1 X123.879 Y45.493 E.00834
G1 X138.222 Y45.493 E.44971
G1 X138.411 Y45.681 E.00836
G1 X138.411 Y60.024 E.44971
G1 X138.378 Y60.125 E.00333
;WIPE_START
G1 F7200
G1 X138.331 Y60.158 E-.01364
G1 X138.222 Y60.213 E-.029
G1 X135.033 Y60.213 E-.75736
;WIPE_END
G1 X138.616 Y62.287 F9000
G1 E.8 F1800
;TYPE:Perimeter
G1 F1200
G1 X138.68 Y62.349 E.00279
G1 X138.754 Y62.488 E.00494
G1 X138.788 Y62.681 E.00614
G1 X138.788 Y77.024 E.44971
G1 X138.754 Y77.217 E.00614
G1 X138.68 Y77.357 E.00497
G1 X138.543 Y77.49 E.00599
