; generated by PrusaSlicer 2.9.4 on 2026-03-28 at 09:38:19 UTC

; 

; external perimeters extrusion width = 0.42mm
; perimeters extrusion width = 0.44mm
; infill extrusion width = 0.44mm
; solid infill extrusion width = 0.44mm
; top infill extrusion width = 0.40mm
; support material extrusion width = 0.36mm
; first layer extrusion width = 0.42mm

; external perimeters extrusion width = 0.42mm
; perimeters extrusion width = 0.44mm
; infill extrusion width = 0.44mm
; solid infill extrusion width = 0.44mm
; top infill extrusion width = 0.40mm
; support material extrusion width = 0.36mm
; first layer extrusion width = 0.42mm

;TYPE:Custom
G90 ; use absolute coordinates
M83 ; extruder relative mode
M140 S60 ; set final bed temp
M104 S150 ; set temporary nozzle temp to prevent oozing during homing and auto bed leveling
G4 S10 ; allow partial nozzle warmup
G28 ; home all axis

G1 Z50 F240
G1 X2 Y10 F3000
M104 S210 ; set final nozzle temp
M190 S60 ; wait for bed temp to stabilize
M109 S210 ; wait for nozzle temp to stabilize
G1 Z0.28 F240
G92 E0
G1 Y140 E10 F1500 ; prime the nozzle
G1 X2.3 F5000
G92 E0
G1 Y10 E10 F1200 ; prime the nozzle
G92 E0

M300 S300 P200 ; beep
G21 ; set units to millimeters
G90 ; use absolute coordinates
M83 ; use relative distances for extrusion
; Filament gcode

; play sound when print starts
M300 S523 P100
M107
;LAYER_CHANGE
;Z:0.2
;HEIGHT:0.2
G1 E-.8 F1800
G1 Z.2 F9000
G1 X103.249 Y93.435
G1 E.8 F1800
M204 S500
;TYPE:Skirt/Brim
;WIDTH:0.42
G1 F1200
G1 X108.812 Y88.905 E.22494
G1 X109.668 Y88.389 E.03134
G1 X116.23 Y85.599 E.22357
G1 X117.625 Y85.315 E.04464
G1 X125.453 Y85.315 E.24544
G1 X127.083 Y85.709 E.05258
G1 X128.353 Y86.805 E.0526
G1 X129.019 Y88.88 E.06833
G1 X129.019 Y104.46 E.4885
G1 X128.905 Y105.356 E.02832
G1 X126.515 Y114.566 E.29834
G1 X125.248 Y116.488 E.07218
G1 X112.185 Y126.618 E.5183
G1 X110 Y127.366 E.07241
G1 X108 Y127.366 E.06271
G1 X106.37 Y126.971 E.05259
G1 X105.101 Y125.875 E.05257
G1 X104.523 Y124.59 E.04418
G1 X102.023 Y113.59 E.35369
G1 X101.934 Y112.8 E.02493
G1 X101.934 Y96.2 E.52048
G1 X102.329 Y94.57 E.05259
G1 X103.211 Y93.482 E.04391
G1 X103.487 Y93.727 F9000
G1 F1200
G1 X109.05 Y89.198 E.22492
G1 X109.816 Y88.736 E.02805
G1 X116.378 Y85.946 E.22357
G1 X117.625 Y85.692 E.0399
G1 X125.453 Y85.692 E.24544
G1 X126.988 Y86.085 E.04968
G1 X128.144 Y87.169 E.04969
G1 X128.642 Y88.88 E.05587
G1 X128.642 Y104.46 E.4885
G1 X128.54 Y105.261 E.02532
G1 X126.15 Y114.471 E.29834
G1 X125.017 Y116.19 E.06455
G1 X111.954 Y126.32 E.5183
G1 X110 Y126.989 E.06476
G1 X108 Y126.989 E.06271
G1 X106.465 Y126.595 E.04969
G1 X105.309 Y125.511 E.04969
G1 X104.891 Y124.507 E.0341
G1 X102.391 Y113.507 E.35369
G1 X102.311 Y112.8 E.02231
G1 X102.311 Y96.2 E.52048
G1 X102.705 Y94.665 E.04969
G1 X103.448 Y93.774 E.03638
;WIPE_START
G1 F7200
G1 X103.487 Y93.727 E-.01451
G1 X106.052 Y91.639 E-.78549
;WIPE_END
G1 X109.446 Y117.788 F9000
G1 E.8 F1800
;TYPE:Perimeter
;WIDTH:0.457188
G1 F1200
G1 X109.518 Y117.879 E.004
;WIDTH:0.452825
G1 X109.58 Y117.927 E.00267
;WIDTH:0.48565
G1 X109.642 Y117.975 E.00289
;WIDTH:0.522377
G1 X109.735 Y118.009 E.00395
;WIDTH:0.559104
G1 X109.829 Y118.042 E.00428
G1 X112.793 Y118.042 E.12722
G1 X112.793 Y118.558 E.02215
;WIDTH:0.559103
G1 X109.774 Y118.558 E.12958
G1 X109.689 Y118.612 E.00432
;WIDTH:0.512735
G1 X109.603 Y118.667 E.00399
;WIDTH:0.466367
G1 X109.518 Y118.721 E.00355
;WIDTH:0.457189
G1 X109.372 Y118.957 E.00956
;WIDTH:0.494378
G1 X109.226 Y119.193 E.01042
G1 X109.226 Y123.026 E.14389
G1 X108.774 Y123.026 E.01697
G1 X108.774 Y119.193 E.14389
G1 X108.756 Y118.747 E.01676
;WIDTH:0.457188
G1 X108.737 Y118.3 E.01541
G1 X108.756 Y117.853 E.01541
;WIDTH:0.494374
G1 X108.774 Y117.407 E.01676
G1 X108.774 Y112.629 E.17936
G1 X108.643 Y112.402 E.00984
;WIDTH:0.457187
G1 X108.511 Y112.176 E.00902
;WIDTH:0.419999
G1 X108.171 Y112.063 E.01123
G1 X106.237 Y112.063 E.06064
G1 X106.237 Y96.937 E.47426
G1 X109.263 Y96.937 E.09488
G1 X109.263 Y111.8 E.46602
;WIDTH:0.457187
G1 X109.244 Y112.214 E.01428
;WIDTH:0.494377
G1 X109.226 Y112.629 E.01559
G1 X109.226 Y117.504 E.183
G1 X109.372 Y117.691 E.00891
;WIDTH:0.457188
G1 X109.41 Y117.74 E.00214
G1 X109.698 Y117.515 F9000
;TYPE:External perimeter
;WIDTH:0.419999
G1 F1200
G1 X109.725 Y117.564 E.00175
G1 X109.829 Y117.595 E.0034
G1 X113.24 Y117.595 E.10695
G1 X113.24 Y119.005 E.04421
G1 X109.776 Y119.005 E.10861
G1 X109.64 Y119.193 E.00728
G1 X109.64 Y123.44 E.13316
G1 X108.36 Y123.44 E.04013
G1 X108.36 Y112.629 E.33897
G1 X108.285 Y112.478 E.00529
G1 X108.171 Y112.44 E.00377
G1 X105.86 Y112.44 E.07246
G1 X105.86 Y96.56 E.49791
G1 X109.64 Y96.56 E.11852
G1 X109.64 Y117.407 E.65364
G1 X109.67 Y117.462 E.00196
;WIPE_START
G1 F7200
G1 X109.698 Y117.515 E-.01424
G1 X109.725 Y117.564 E-.01329
G1 X109.829 Y117.595 E-.02577
G1 X112.973 Y117.595 E-.7467
;WIPE_END
G1 X109.422 Y118.675 F9000
G1 E.8 F1800
;TYPE:Solid infill
;WIDTH:0.450269
G1 F1200
G1 X108.876 Y118.129 E.02615
;WIPE_START
G1 F7200
G1 X109.422 Y118.675 E-.18339
;WIPE_END
G1 E-.61661 F1800
G1 X108.373 Y97.058 F9000
G1 E.8 F1800
;WIDTH:0.423139
G1 F1200
G1 X108.973 Y97.657 E.0268
G1 X108.973 Y98.195 E.01701
G1 X108.005 Y97.227 E.04328
G1 X107.468 Y97.227 E.01698
G1 X108.973 Y98.732 E.06729
G1 X108.973 Y99.27 E.01701
G1 X106.93 Y97.227 E.09134
G1 X106.527 Y97.227 E.01274
G1 X106.527 Y97.363 E.0043
G1 X108.973 Y99.808 E.10934
G1 X108.973 Y100.346 E.01701
G1 X106.527 Y97.9 E.10936
G1 X106.527 Y98.438 E.01701
G1 X108.973 Y100.883 E.10934
G1 X108.973 Y101.421 E.01701
G1 X106.527 Y98.976 E.10934
G1 X106.527 Y99.514 E.01701
G1 X108.973 Y101.959 E.10934
G1 X108.973 Y102.496 E.01698
G1 X106.527 Y100.051 E.10934
G1 X106.527 Y100.589 E.01701
G1 X108.973 Y103.034 E.10934
G1 X108.973 Y103.572 E.01701
G1 X106.527 Y101.127 E.10934
G1 X106.527 Y101.664 E.01698
G1 X108.973 Y104.11 E.10936
G1 X108.973 Y104.647 E.01698
G1 X106.527 Y102.202 E.10934
G1 X106.527 Y102.74 E.01701
G1 X108.973 Y105.185 E.10934
G1 X108.973 Y105.723 E.01701
G1 X106.527 Y103.277 E.10936
G1 X106.527 Y103.815 E.01701
G1 X108.973 Y106.26 E.10934
G1 X108.973 Y106.798 E.01701
G1 X106.527 Y104.353 E.10934
G1 X106.527 Y104.891 E.01701
G1 X108.973 Y107.336 E.10934
G1 X108.973 Y107.873 E.01698
G1 X106.527 Y105.428 E.10934
G1 X106.527 Y105.966 E.01701
G1 X108.973 Y108.411 E.10934
G1 X108.973 Y108.949 E.01701
G1 X106.527 Y106.504 E.10934
G1 X106.527 Y107.041 E.01698
G1 X108.973 Y109.487 E.10936
G1 X108.973 Y110.024 E.01698
G1 X106.527 Y107.579 E.10934
G1 X106.527 Y108.117 E.01701
G1 X108.973 Y110.562 E.10934
G1 X108.973 Y111.1 E.01701
G1 X106.527 Y108.655 E.10934
G1 X106.527 Y109.192 E.01698
G1 X108.973 Y111.637 E.10934
G1 X108.973 Y111.795 E.005
G1 X108.941 Y112.144 E.01108
G1 X106.527 Y109.73 E.10793
G1 X106.527 Y110.268 E.01701
G1 X108.032 Y111.773 E.06729
G1 X107.495 Y111.773 E.01698
G1 X106.527 Y110.805 E.04328
G1 X106.527 Y111.343 E.01701
G1 X107.127 Y111.942 E.0268
;WIPE_START
G1 F7200
G1 X106.527 Y111.343 E-.20136
G1 X106.527 Y110.805 E-.12777
G1 X107.495 Y111.773 E-.32513
G1 X108.032 Y111.773 E-.12754
G1 X107.978 Y111.719 E-.0182
;WIPE_END
G1 X125.453 Y104.46 F9000
G1 E.8 F1800
;TYPE:Support material
;WIDTH:0.42
G1 F1200
G1 X120.625 Y104.46 E.15138
G1 X120.625 Y91.479 E.40701
G1 X120.355 Y91.208 E.01199
G1 X117.625 Y91.208 E.0856
G1 X117.625 Y88.88 E.07299
G1 X125.453 Y88.88 E.24544
G1 X125.453 Y104.404 E.48674
G1 X125.024 Y104.291 F9000
G1 F1200
G1 X125.024 Y89.22 E.47254
G1 X124.605 Y89.22 E.01314
G1 X124.605 Y104.121 E.46721
G1 X124.186 Y104.121 E.01314
G1 X124.186 Y89.22 E.46721
G1 X123.767 Y89.22 E.01314
G1 X123.767 Y104.121 E.46721
G1 X123.348 Y104.121 E.01314
G1 X123.348 Y89.22 E.46721
G1 X122.929 Y89.22 E.01314
G1 X122.929 Y104.121 E.46721
G1 X122.51 Y104.121 E.01314
G1 X122.51 Y89.22 E.46721
G1 X122.091 Y89.22 E.01314
G1 X122.091 Y104.121 E.46721
G1 X121.672 Y104.121 E.01314
G1 X121.672 Y89.22 E.46721
G1 X121.253 Y89.22 E.01314
G1 X121.253 Y104.121 E.46721
G1 X120.965 Y104.121 E.00903
G1 X120.965 Y91.338 E.4008
G1 X120.834 Y91.208 E.00579
G1 X120.834 Y89.22 E.06233
G1 X120.415 Y89.22 E.01314
G1 X120.415 Y90.869 E.0517
G1 X119.996 Y90.869 E.01314
G1 X119.996 Y89.22 E.0517
G1 X119.577 Y89.22 E.01314
G1 X119.577 Y90.869 E.0517
G1 X119.158 Y90.869 E.01314
G1 X119.158 Y89.22 E.0517
G1 X118.739 Y89.22 E.01314
G1 X118.739 Y90.869 E.0517
G1 X118.32 Y90.869 E.01314
G1 X118.32 Y89.05 E.05703
;WIPE_START
G1 F7200
G1 X118.32 Y90.869 E-.43201
G1 X118.739 Y90.869 E-.09951
G1 X118.739 Y89.738 E-.26848
;WIPE_END
G1 X119.002 Y108.01 F9000
G1 E.8 F1800
;TYPE:External perimeter
;WIDTH:0.419999
G1 F1200
G1 X120.064 Y108.01 E.0333
G1 X120.185 Y108.054 E.00404
G1 X120.252 Y108.199 E.00501
G1 X120.252 Y111.842 E.11422
G1 X120.199 Y111.973 E.00443
G1 X120.064 Y112.03 E.00459
G1 X114.063 Y112.03 E.18816
G1 X113.927 Y111.973 E.00462
G1 X113.874 Y111.842 E.00443
G1 X113.874 Y108.199 E.11422
G1 X113.95 Y108.048 E.0053
G1 X114.063 Y108.01 E.00374
G1 X118.942 Y108.01 E.15298
;WIPE_START
G1 F7200
G1 X119.002 Y108.01 E-.01425
G1 X120.064 Y108.01 E-.25222
G1 X120.185 Y108.054 E-.03058
G1 X120.252 Y108.199 E-.03794
G1 X120.252 Y110.157 E-.46501
;WIPE_END
G1 X119.496 Y107.051 F9000
G1 E.8 F1800
;TYPE:Perimeter
G1 F1200
G1 X119.538 Y107.179 E.00422
G1 X119.987 Y107.407 E.01579
;WIDTH:0.46791
G1 X120.179 Y107.537 E.00819
;WIDTH:0.51582
G1 X120.371 Y107.667 E.00912
G1 X120.178 Y107.65 E.00762
;WIDTH:0.46791
G1 X119.985 Y107.633 E.00685
;WIDTH:0.419999
G1 X113.95 Y107.633 E.18922
G1 X113.723 Y107.746 E.00795
G1 X113.564 Y107.933 E.0077
G1 X113.497 Y108.199 E.0086
G1 X113.497 Y111.919 E.11664
G1 X113.656 Y112.235 E.01109
;WIDTH:0.45719
G1 X113.86 Y112.34 E.0079
;WIDTH:0.494381
G1 X114.063 Y112.444 E.00856
G1 X120.16 Y112.444 E.22888
G1 X120.315 Y112.34 E.00701
;WIDTH:0.45719
G1 X120.47 Y112.235 E.00645
;WIDTH:0.419999
G1 X120.622 Y111.934 E.01057
G1 X120.629 Y111.842 E.00289
G1 X120.629 Y108.199 E.11422
;WIDTH:0.455038
G1 X120.573 Y108.041 E.00574
;WIDTH:0.490077
G1 X120.517 Y107.883 E.00623
;WIDTH:0.525116
G1 X120.461 Y107.725 E.00672
G1 X120.643 Y107.81 E.00805
;WIDTH:0.490077
G1 X120.826 Y107.895 E.0075
;WIDTH:0.455038
G1 X121.008 Y107.98 E.00688
;WIDTH:0.419999
G1 X122.326 Y108.741 E.04772
G1 X122.326 Y112.933 E.13144
G1 X120.766 Y112.933 E.04891
;WIDTH:0.45719
G1 X120.415 Y112.915 E.01211
;WIDTH:0.494381
G1 X120.064 Y112.896 E.0132
G1 X114.063 Y112.896 E.22527
G1 X113.712 Y112.915 E.0132
;WIDTH:0.45719
G1 X113.361 Y112.933 E.01211
;WIDTH:0.419999
G1 X111.8 Y112.933 E.04894
G1 X111.8 Y92.407 E.64358
G1 X119.426 Y92.407 E.23911
G1 X119.426 Y106.842 E.4526
G1 X119.477 Y106.994 E.00503
G1 X119.811 Y106.865 F9000
;TYPE:External perimeter
G1 F1200
G1 X119.841 Y106.954 E.00294
G1 X119.99 Y107.03 E.00524
G1 X120.117 Y107.03 E.00398
G1 X122.703 Y108.523 E.09363
G1 X122.703 Y113.31 E.15009
G1 X111.423 Y113.31 E.35368
G1 X111.423 Y92.03 E.66722
G1 X119.803 Y92.03 E.26275
G1 X119.803 Y106.806 E.46329
;WIPE_START
G1 F7200
G1 X119.811 Y106.865 E-.01414
G1 X119.841 Y106.954 E-.02231
G1 X119.99 Y107.03 E-.03973
G1 X120.117 Y107.03 E-.03016
G1 X122.647 Y108.491 E-.69366
;WIPE_END
G1 X120.75 Y108.165 F9000
G1 E.8 F1800
;TYPE:Solid infill
;WIDTH:0.438621
G1 F1200
G1 X122.036 Y109.451 E.05984
G1 X122.036 Y110.011 E.01843
G1 X120.918 Y108.892 E.05205
G1 X120.916 Y109.451 E.01839
G1 X122.036 Y110.57 E.05209
G1 X122.036 Y111.13 E.01843
G1 X120.915 Y110.009 E.05216
G1 X120.913 Y110.567 E.01836
G1 X122.036 Y111.689 E.05223
G1 X122.036 Y112.249 E.01843
G1 X120.912 Y111.125 E.0523
G1 X120.91 Y111.683 E.01836
G1 X121.87 Y112.643 E.04467
G1 X121.311 Y112.643 E.01839
G1 X120.825 Y112.157 E.02261
G1 X120.686 Y112.433 E.01017
G1 X120.603 Y112.495 E.00341
G1 X120.921 Y112.812 E.01477
;WIPE_START
G1 F7200
G1 X120.603 Y112.495 E-.10664
G1 X120.686 Y112.433 E-.02461
G1 X120.825 Y112.157 E-.07339
G1 X121.311 Y112.643 E-.16324
G1 X121.87 Y112.643 E-.13276
G1 X120.979 Y111.752 E-.29936
;WIPE_END
G1 X119.306 Y93.291 F9000
G1 E.8 F1800
;WIDTH:0.420195
G1 F1200
G1 X118.713 Y92.698 E.02631
G1 X118.179 Y92.698 E.01675
G1 X119.136 Y93.654 E.04243
G1 X119.136 Y94.188 E.01675
G1 X117.645 Y92.698 E.06613
G1 X117.112 Y92.698 E.01672
G1 X119.136 Y94.722 E.08979
G1 X119.136 Y95.255 E.01672
G1 X116.578 Y92.698 E.11346
G1 X116.045 Y92.698 E.01672
G1 X119.136 Y95.789 E.13713
G1 X119.136 Y96.322 E.01672
G1 X115.511 Y92.698 E.1608
G1 X114.978 Y92.698 E.01672
G1 X119.136 Y96.856 E.18447
G1 X119.136 Y97.389 E.01672
G1 X114.444 Y92.698 E.20814
G1 X113.911 Y92.698 E.01672
G1 X119.136 Y97.923 E.23181
G1 X119.136 Y98.456 E.01672
G1 X113.377 Y92.698 E.25547
G1 X112.844 Y92.698 E.01672
G1 X119.136 Y98.99 E.27914
G1 X119.136 Y99.524 E.01675
G1 X112.31 Y92.698 E.30283
G1 X112.091 Y92.698 E.00687
G1 X112.091 Y93.012 E.00985
G1 X119.136 Y100.057 E.31255
G1 X119.136 Y100.591 E.01675
G1 X112.091 Y93.545 E.31257
G1 X112.091 Y94.079 E.01675
G1 X119.136 Y101.124 E.31255
G1 X119.136 Y101.658 E.01675
G1 X112.091 Y94.613 E.31255
G1 X112.091 Y95.146 E.01672
G1 X119.136 Y102.191 E.31255
G1 X119.136 Y102.725 E.01675
G1 X112.091 Y95.68 E.31255
G1 X112.091 Y96.213 E.01672
G1 X119.136 Y103.258 E.31255
G1 X119.136 Y103.792 E.01675
G1 X112.091 Y96.747 E.31255
G1 X112.091 Y97.28 E.01672
G1 X119.136 Y104.325 E.31255
G1 X119.136 Y104.859 E.01675
G1 X112.091 Y97.814 E.31255
G1 X112.091 Y98.347 E.01672
G1 X119.136 Y105.393 E.31257
G1 X119.136 Y105.926 E.01672
G1 X112.091 Y98.881 E.31255
G1 X112.091 Y99.414 E.01672
G1 X119.136 Y106.46 E.31257
G1 X119.136 Y106.858 E.01249
G1 X119.203 Y107.06 E.00668
G1 X112.091 Y99.948 E.31552
G1 X112.091 Y100.482 E.01675
G1 X118.952 Y107.343 E.30439
G1 X118.418 Y107.343 E.01675
G1 X112.091 Y101.015 E.28072
G1 X112.091 Y101.549 E.01675
G1 X117.885 Y107.343 E.25705
G1 X117.351 Y107.343 E.01675
G1 X112.091 Y102.082 E.23338
G1 X112.091 Y102.616 E.01675
G1 X116.818 Y107.343 E.20971
G1 X116.284 Y107.343 E.01675
G1 X112.091 Y103.149 E.18604
G1 X112.091 Y103.683 E.01675
G1 X115.751 Y107.343 E.16237
G1 X115.217 Y107.343 E.01675
G1 X112.091 Y104.216 E.13871
G1 X112.091 Y104.75 E.01675
G1 X114.684 Y107.343 E.11504
G1 X114.15 Y107.343 E.01675
G1 X112.091 Y105.283 E.09137
G1 X112.091 Y105.817 E.01675
G1 X113.707 Y107.433 E.07169
G1 X113.546 Y107.514 E.00565
G1 X113.411 Y107.671 E.0065
G1 X112.091 Y106.351 E.05856
G1 X112.091 Y106.884 E.01672
G1 X113.244 Y108.037 E.05115
G1 X113.207 Y108.186 E.00482
G1 X113.208 Y108.535 E.01095
G1 X112.091 Y107.418 E.04956
G1 X112.091 Y107.951 E.01672
G1 X113.209 Y109.07 E.04962
G1 X113.211 Y109.605 E.01678
G1 X112.091 Y108.485 E.04969
G1 X112.091 Y109.018 E.01672
G1 X113.212 Y110.14 E.04975
G1 X113.214 Y110.675 E.01678
G1 X112.091 Y109.552 E.04982
G1 X112.091 Y110.085 E.01672
G1 X113.215 Y111.21 E.04989
G1 X113.216 Y111.745 E.01678
G1 X112.091 Y110.619 E.04993
G1 X112.091 Y111.153 E.01675
G1 X113.559 Y112.621 E.06513
G1 X113.355 Y112.643 E.00644
G1 X113.047 Y112.643 E.00966
G1 X112.091 Y111.686 E.04243
G1 X112.091 Y112.22 E.01675
G1 X112.684 Y112.812 E.02629
M106 S255
;LAYER_CHANGE
;Z:0.36
;HEIGHT:0.16
;BEFORE_LAYER_CHANGE
G92 E0
;0.36


;WIPE_START
G1 F7200
G1 X112.091 Y112.22 E-.19901
G1 X112.091 Y111.686 E-.12682
G1 X113.047 Y112.643 E-.32127
G1 X113.355 Y112.643 E-.07315
G1 X113.559 Y112.621 E-.04873
G1 X113.467 Y112.529 E-.03102
;WIPE_END
G1 Z.36 F9000
;AFTER_LAYER_CHANGE
;0.36
M104 S200 ; set temperature
G1 X102.379 Y115.155
G1 E.8 F1800
;TYPE:Skirt/Brim
;WIDTH:0.42
G1 F2400
G1 X102.023 Y113.59 E.04117
G1 X101.934 Y112.8 E.0204
G1 X101.934 Y96.2 E.42586
G1 X102.329 Y94.57 E.04303
G1 X103.249 Y93.435 E.03748
G1 X108.812 Y88.905 E.18405
G1 X109.668 Y88.389 E.02564
G1 X116.23 Y85.599 E.18293
G1 X117.625 Y85.315 E.03652
G1 X125.453 Y85.315 E.20082
G1 X127.083 Y85.709 E.04302
G1 X128.353 Y86.805 E.04304
G1 X129.019 Y88.88 E.05591
G1 X129.019 Y104.46 E.3997
G1 X128.905 Y105.356 E.02317
G1 X126.515 Y114.566 E.2441
G1 X125.248 Y116.488 E.05906
G1 X112.185 Y126.618 E.42408
G1 X110 Y127.366 E.05925
G1 X108 Y127.366 E.05131
G1 X106.37 Y126.971 E.04303
G1 X105.101 Y125.875 E.04302
G1 X104.523 Y124.59 E.03615
G1 X102.392 Y115.213 E.2467
G1 X102.76 Y115.129 F9000
