; generated by PrusaSlicer 2.9.4 on 2026-03-11 at 07:34:21 UTC

; 

; external perimeters extrusion width = 0.42mm
; perimeters extrusion width = 0.44mm
; infill extrusion width = 0.44mm
; solid infill extrusion width = 0.44mm
; top infill extrusion width = 0.40mm
; support material extrusion width = 0.36mm
; first layer extrusion width = 0.42mm

;TYPE:Custom
G90 ; use absolute coordinates
M83 ; extruder relative mode
M140 S60 ; set final bed temp
M104 S150 ; set temporary nozzle temp to prevent oozing during homing and auto bed leveling
G4 S10 ; allow partial nozzle warmup
G28 ; home all axis

G1 Z50 F240
G1 X2 Y10 F3000
M104 S210 ; set final nozzle temp
M190 S60 ; wait for bed temp to stabilize
M109 S210 ; wait for nozzle temp to stabilize
G1 Z0.28 F240
G92 E0
G1 Y140 E10 F1500 ; prime the nozzle
G1 X2.3 F5000
G92 E0
G1 Y10 E10 F1200 ; prime the nozzle
G92 E0

M300 S300 P200 ; beep
G21 ; set units to millimeters
G90 ; use absolute coordinates
M83 ; use relative distances for extrusion
; Filament gcode

; play sound when print starts
M300 S523 P100
M107
;LAYER_CHANGE
;Z:0.2
;HEIGHT:0.2
G1 E-.8 F1800
G1 Z.2 F9000
G1 X39.547 Y42.061
G1 E.8 F1800
M204 S500
;TYPE:Skirt/Brim
;WIDTH:0.42
G1 F1200
G1 X40.365 Y41.459 E.03184
G1 X40.83 Y41.251 E.01597
G1 X41.613 Y41.061 E.02526
G1 X83.308 Y36.034 E1.31678
G1 X157.278 Y36.042 E2.31928
G1 X158.272 Y36.251 E.03185
G1 X159.21 Y36.763 E.03351
G1 X159.593 Y37.1 E.016
G1 X160.169 Y37.869 E.03013
G1 X160.543 Y38.871 E.03353
G1 X160.619 Y39.603 E.02307
G1 X160.569 Y56.908 E.54259
G1 X151.543 Y107.335 E1.60623
G1 X151.384 Y107.875 E.01765
G1 X150.923 Y108.719 E.03015
G1 X150.21 Y109.443 E.03186
G1 X149.737 Y109.747 E.01763
G1 X149.272 Y109.955 E.01597
G1 X148.454 Y110.148 E.02635
G1 X112.143 Y114.152 E1.14541
G1 X96.135 Y114.171 E.50192
G1 X95.282 Y114.055 E.02699
G1 X77.42 Y109.092 E.58127
G1 X41.016 Y98.018 E1.19306
G1 X40.365 Y97.747 E.02211
G1 X39.891 Y97.443 E.01766
G1 X39.211 Y96.763 E.03015
G1 X38.907 Y96.289 E.01766
G1 X38.571 Y95.388 E.03015
G1 X38.482 Y94.603 E.02477
G1 X38.482 Y44.603 E1.56771
G1 X38.564 Y43.851 E.02372
G1 X38.933 Y42.87 E.03286
G1 X39.511 Y42.109 E.02996
;WIPE_START
G1 F7200
G1 X39.547 Y42.061 E-.01425
G1 X40.365 Y41.459 E-.24121
G1 X40.83 Y41.251 E-.12098
G1 X41.613 Y41.061 E-.19136
G1 X42.584 Y40.944 E-.2322
;WIPE_END
G1 X96.488 Y76.423 F9000
G1 E.8 F1800
;TYPE:Perimeter
;WIDTH:0.419999
G1 F1200
G1 X96.446 Y76.387 E.00173
G1 X96.35 Y76.223 E.00596
G1 X96.314 Y76.024 E.00634
G1 X96.314 Y61.681 E.44971
G1 X96.373 Y61.429 E.00811
G1 X96.52 Y61.245 E.00738
G1 X96.691 Y61.148 E.00616
G1 X96.879 Y61.116 E.00598
G1 X111.222 Y61.116 E.44971
G1 X111.41 Y61.148 E.00598
G1 X111.582 Y61.245 E.00619
G1 X111.728 Y61.429 E.00736
G1 X111.788 Y61.681 E.00812
G1 X111.788 Y76.024 E.44971
G1 X111.752 Y76.223 E.00634
G1 X111.656 Y76.387 E.00596
G1 X111.512 Y76.51 E.00594
G1 X111.222 Y76.59 E.00943
G1 X96.879 Y76.59 E.44971
G1 X96.589 Y76.51 E.00943
G1 X96.533 Y76.462 E.00231
G1 X96.771 Y76.162 F9000
;TYPE:External perimeter
G1 F1200
G1 X96.735 Y76.145 E.00125
G1 X96.691 Y76.07 E.00273
G1 X96.691 Y61.681 E.45116
G1 X96.759 Y61.536 E.00502
G1 X96.879 Y61.493 E.004
G1 X111.222 Y61.493 E.44971
G1 X111.342 Y61.536 E.004
G1 X111.411 Y61.681 E.00503
G1 X111.411 Y76.024 E.44971
G1 X111.367 Y76.145 E.00404
G1 X111.222 Y76.213 E.00502
G1 X96.879 Y76.213 E.44971
G1 X96.825 Y76.188 E.00187
;WIPE_START
G1 F7200
G1 X96.771 Y76.162 E-.01423
G1 X96.735 Y76.145 E-.00946
G1 X96.691 Y76.07 E-.02065
G1 X96.691 Y72.888 E-.75566
;WIPE_END
G1 X96.488 Y93.423 F9000
G1 E.8 F1800
;TYPE:Perimeter
G1 F1200
G1 X96.446 Y93.387 E.00173
G1 X96.314 Y93.104 E.00979
G1 X96.314 Y78.681 E.45222
G1 X96.35 Y78.483 E.00631
G1 X96.446 Y78.318 E.00599
G1 X96.589 Y78.196 E.00589
G1 X96.879 Y78.116 E.00943
G1 X111.222 Y78.116 E.44971
G1 X111.512 Y78.196 E.00943
G1 X111.656 Y78.318 E.00592
G1 X111.752 Y78.483 E.00599
G1 X111.788 Y78.681 E.00631
G1 X111.788 Y93.024 E.44971
G1 X111.752 Y93.223 E.00634
G1 X111.656 Y93.387 E.00596
G1 X111.512 Y93.51 E.00594
G1 X111.222 Y93.59 E.00943
G1 X96.879 Y93.59 E.44971
G1 X96.589 Y93.51 E.00943
G1 X96.533 Y93.462 E.00231
G1 X96.771 Y93.162 F9000
;TYPE:External perimeter
G1 F1200
G1 X96.735 Y93.145 E.00125
G1 X96.691 Y93.024 E.00404
G1 X96.691 Y78.681 E.44971
G1 X96.783 Y78.52 E.00581
G1 X96.879 Y78.493 E.00313
G1 X111.222 Y78.493 E.44971
G1 X111.367 Y78.56 E.00501
G1 X111.411 Y78.681 E.00404
G1 X111.411 Y93.024 E.44971
G1 X111.367 Y93.145 E.00404
G1 X111.222 Y93.213 E.00502
G1 X96.879 Y93.213 E.44971
G1 X96.825 Y93.188 E.00187
;WIPE_START
G1 F7200
G1 X96.771 Y93.162 E-.01423
G1 X96.735 Y93.145 E-.00946
G1 X96.691 Y93.024 E-.03058
G1 X96.691 Y89.884 E-.74573
;WIPE_END
G1 X96.771 Y95.544 F9000
G1 E.8 F1800
G1 F1200
G1 X96.879 Y95.493 E.00374
G1 X111.222 Y95.493 E.44971
G1 X111.367 Y95.56 E.00501
G1 X111.411 Y95.681 E.00404
G1 X111.411 Y108.355 E.39738
G1 X111.386 Y109.359 E.03149
G1 X111.335 Y109.967 E.01913
G1 X111.283 Y110.079 E.00387
G1 X111.134 Y110.139 E.00504
G1 X96.943 Y110.136 E.44495
G1 X96.766 Y109.953 E.00798
G1 X96.715 Y109.364 E.01854
G1 X96.691 Y108.358 E.03155
G1 X96.691 Y95.681 E.39748
G1 X96.728 Y95.58 E.00337
;WIPE_START
G1 F7200
G1 X96.771 Y95.544 E-.01332
G1 X96.879 Y95.493 E-.02837
G1 X100.072 Y95.493 E-.75831
;WIPE_END
G1 X78.488 Y74.033 F9000
G1 E.8 F1800
;TYPE:Perimeter
G1 F1200
G1 X78.589 Y73.946 E.00418
G1 X78.879 Y73.866 E.00943
G1 X93.222 Y73.866 E.44971
G1 X93.512 Y73.946 E.00943
G1 X93.656 Y74.068 E.00592
G1 X93.752 Y74.233 E.00599
G1 X93.788 Y74.431 E.00631
G1 X93.788 Y88.774 E.44971
G1 X93.752 Y88.973 E.00634
G1 X93.656 Y89.137 E.00596
G1 X93.512 Y89.26 E.00594
G1 X93.222 Y89.34 E.00943
G1 X78.879 Y89.34 E.44971
G1 X78.589 Y89.26 E.00943
G1 X78.446 Y89.137 E.00591
G1 X78.314 Y88.841 E.01016
G1 X78.314 Y74.431 E.45181
G1 X78.35 Y74.233 E.00631
G1 X78.443 Y74.072 E.00583
G1 X78.771 Y74.294 F9000
;TYPE:External perimeter
G1 F1200
G1 X78.879 Y74.243 E.00374
G1 X93.222 Y74.243 E.44971
G1 X93.367 Y74.31 E.00501
G1 X93.411 Y74.431 E.00404
G1 X93.411 Y88.774 E.44971
G1 X93.367 Y88.895 E.00404
G1 X93.222 Y88.963 E.00502
G1 X78.879 Y88.963 E.44971
G1 X78.735 Y88.895 E.00499
G1 X78.691 Y88.797 E.00337
G1 X78.691 Y74.431 E.45044
G1 X78.728 Y74.33 E.00337
;WIPE_START
G1 F7200
G1 X78.771 Y74.294 E-.01332
G1 X78.879 Y74.243 E-.02837
G1 X82.072 Y74.243 E-.75831
;WIPE_END
G1 X75.331 Y79.544 F9000
G1 E.8 F1800
G1 F1200
G1 X75.367 Y79.56 E.00124
G1 X75.411 Y79.681 E.00404
G1 X75.403 Y92.857 E.41312
G1 X75.362 Y93.371 E.01617
G1 X75.26 Y93.916 E.01738
G1 X75.213 Y94.009 E.00327
G1 X75.075 Y94.068 E.00471
;WIDTH:0.417972
G1 X74.516 Y94.057 E.01744
;WIDTH:0.398266
G1 X74.013 Y94.058 E.01486
;WIDTH:0.422781
G1 X73.129 Y94.117 E.02798
;WIDTH:0.460179
G1 X72.574 Y94.195 E.01945
G1 X71.874 Y94.2 E.02429
;WIDTH:0.419999
G1 X66.55 Y94.21 E.16693
G1 X65.046 Y94.139 E.04721
G1 X60.945 Y94.133 E.12858
G1 X60.767 Y93.967 E.00763
G1 X60.716 Y93.37 E.01879
G1 X60.691 Y92.365 E.03152
G1 X60.691 Y79.681 E.3977
G1 X60.727 Y79.571 E.00363
G1 X60.879 Y79.493 E.00536
G1 X75.222 Y79.493 E.44971
G1 X75.277 Y79.518 E.00189
;WIPE_START
G1 F7200
G1 X75.331 Y79.544 E-.01423
G1 X75.367 Y79.56 E-.00936
G1 X75.411 Y79.681 E-.03058
G1 X75.409 Y82.821 E-.74583
;WIPE_END
G1 X60.486 Y77.419 F9000
G1 E.8 F1800
;TYPE:Perimeter
G1 F1200
G1 X60.422 Y77.357 E.00279
G1 X60.314 Y77.068 E.00967
G1 X60.314 Y62.681 E.45109
G1 X60.348 Y62.488 E.00614
G1 X60.422 Y62.349 E.00494
G1 X60.559 Y62.215 E.00601
G1 X60.879 Y62.116 E.0105
G1 X75.222 Y62.116 E.44971
G1 X75.512 Y62.196 E.00943
G1 X75.656 Y62.318 E.00592
G1 X75.752 Y62.483 E.00599
G1 X75.788 Y62.681 E.00631
G1 X75.788 Y77.024 E.44971
G1 X75.752 Y77.223 E.00634
G1 X75.656 Y77.387 E.00596
G1 X75.512 Y77.51 E.00594
G1 X75.222 Y77.59 E.00943
G1 X60.879 Y77.59 E.44971
G1 X60.559 Y77.49 E.01051
G1 X60.529 Y77.461 E.00131
G1 X60.747 Y77.136 F9000
;TYPE:External perimeter
G1 F1200
G1 X60.691 Y77.04 E.00348
G1 X60.691 Y62.681 E.45022
G1 X60.727 Y62.571 E.00363
G1 X60.879 Y62.493 E.00536
G1 X75.222 Y62.493 E.44971
G1 X75.367 Y62.56 E.00501
G1 X75.411 Y62.681 E.00404
G1 X75.411 Y77.024 E.44971
G1 X75.367 Y77.145 E.00404
G1 X75.222 Y77.213 E.00502
G1 X60.879 Y77.213 E.44971
G1 X60.782 Y77.183 E.00318
;WIPE_START
G1 F7200
G1 X60.747 Y77.136 E-.01392
G1 X60.691 Y77.04 E-.0264
G1 X60.691 Y73.841 E-.75968
;WIPE_END
G1 X42.774 Y60.138 F9000
G1 E.8 F1800
;WIDTH:0.445496
G1 F1200
G1 X42.772 Y60.137 E.00007
;WIDTH:0.470993
G1 X42.665 Y60.06 E.00469
;WIDTH:0.471428
G1 X42.665 Y45.681 E.51233
G1 X42.737 Y45.587 E.00422
;WIDTH:0.445714
G1 X42.808 Y45.493 E.00395
;WIDTH:0.419999
G1 X57.222 Y45.493 E.45194
G1 X57.411 Y45.681 E.00836
G1 X57.411 Y60.024 E.44971
G1 X57.329 Y60.18 E.00553
G1 X57.222 Y60.213 E.00351
G1 X42.879 Y60.213 E.44971
;WIDTH:0.445496
G1 X42.823 Y60.173 E.0023
;WIPE_START
G1 F7200
G1 X42.774 Y60.138 E-.0143
G1 X42.772 Y60.137 E-.00053
G1 X42.665 Y60.06 E-.03131
G1 X42.665 Y56.886 E-.75386
;WIPE_END
G1 X42.78 Y62.58 F9000
G1 E.8 F1800
;WIDTH:0.445456
G1 F1200
G1 X42.879 Y62.493 E.00441
;WIDTH:0.419999
G1 X57.222 Y62.493 E.44971
G1 X57.375 Y62.571 E.00538
G1 X57.411 Y62.681 E.00363
G1 X57.411 Y77.024 E.44971
G1 X57.375 Y77.135 E.00366
G1 X57.222 Y77.213 E.00538
G1 X42.879 Y77.213 E.44971
;WIDTH:0.445238
G1 X42.772 Y77.137 E.00439
;WIDTH:0.470477
G1 X42.666 Y77.06 E.00466
;WIDTH:0.470912
G1 X42.665 Y62.681 E.51172
G1 X42.735 Y62.62 E.0033
;WIPE_START
G1 F7200
G1 X42.78 Y62.58 E-.0143
G1 X42.879 Y62.493 E-.0313
G1 X46.055 Y62.493 E-.7544
;WIPE_END
G1 X57.331 Y79.548 F9000
G1 E.8 F1800
;WIDTH:0.419999
G1 F1200
G1 X57.375 Y79.571 E.00156
G1 X57.411 Y79.681 E.00363
G1 X57.411 Y92.353 E.39732
G1 X57.335 Y93.967 E.05066
G1 X57.154 Y94.139 E.00783
G1 X43.056 Y94.139 E.44203
;WIDTH:0.458301
G1 X42.949 Y94.114 E.0038
;WIDTH:0.496613
G1 X42.842 Y94.089 E.00415
;WIDTH:0.534924
G1 X42.736 Y94.063 E.00447
G1 X42.71 Y93.717 E.01419
;WIDTH:0.508592
G1 X42.684 Y93.371 E.01344
;WIDTH:0.48226
G1 X42.666 Y92.357 E.03705
;WIDTH:0.470396
G1 X42.666 Y79.681 E.45057
G1 X42.772 Y79.587 E.00504
;WIDTH:0.445198
G1 X42.879 Y79.493 E.00476
;WIDTH:0.419999
G1 X57.222 Y79.493 E.44971
G1 X57.277 Y79.521 E.00194
;WIPE_START
G1 F7200
G1 X57.331 Y79.548 E-.01434
G1 X57.375 Y79.571 E-.01179
G1 X57.411 Y79.681 E-.02749
G1 X57.411 Y82.824 E-.74638
;WIPE_END
G1 X60.771 Y60.158 F9000
G1 E.8 F1800
G1 F1200
G1 X60.727 Y60.135 E.00156
G1 X60.691 Y60.024 E.00366
G1 X60.691 Y45.681 E.44971
G1 X60.879 Y45.493 E.00834
G1 X75.222 Y45.493 E.44971
G1 X75.411 Y45.681 E.00836
G1 X75.411 Y60.024 E.44971
G1 X75.367 Y60.145 E.00404
G1 X75.222 Y60.213 E.00502
G1 X60.879 Y60.213 E.44971
G1 X60.824 Y60.185 E.00194
;WIPE_START
G1 F7200
G1 X60.771 Y60.158 E-.01413
G1 X60.727 Y60.135 E-.01179
G1 X60.691 Y60.024 E-.02771
G1 X60.691 Y56.881 E-.74637
;WIPE_END
G1 X78.488 Y72.173 F9000
G1 E.8 F1800
;TYPE:Perimeter
G1 F1200
G1 X78.446 Y72.137 E.00173
G1 X78.314 Y71.854 E.00979
G1 X78.314 Y57.431 E.45222
G1 X78.375 Y57.176 E.00822
G1 X78.524 Y56.991 E.00745
G1 X78.698 Y56.896 E.00622
G1 X79.301 Y56.866 E.01893
G1 X93.222 Y56.866 E.43648
G1 X93.562 Y56.979 E.01123
G1 X93.744 Y57.214 E.00932
G1 X93.788 Y57.431 E.00694
G1 X93.788 Y71.774 E.44971
G1 X93.752 Y71.973 E.00634
G1 X93.656 Y72.137 E.00596
G1 X93.512 Y72.26 E.00594
G1 X93.222 Y72.34 E.00943
G1 X78.879 Y72.34 E.44971
G1 X78.589 Y72.26 E.00943
G1 X78.533 Y72.212 E.00231
G1 X78.771 Y71.912 F9000
;TYPE:External perimeter
G1 F1200
G1 X78.735 Y71.895 E.00125
G1 X78.691 Y71.774 E.00404
G1 X78.691 Y57.431 E.44971
G1 X78.711 Y57.346 E.00274
G1 X78.819 Y57.253 E.00447
G1 X79.984 Y57.243 E.03653
G1 X93.222 Y57.243 E.41507
G1 X93.335 Y57.281 E.00374
G1 X93.411 Y57.431 E.00527
G1 X93.411 Y71.774 E.44971
G1 X93.367 Y71.895 E.00404
G1 X93.222 Y71.963 E.00502
G1 X78.879 Y71.963 E.44971
G1 X78.825 Y71.938 E.00187
;WIPE_START
G1 F7200
G1 X78.771 Y71.912 E-.01423
G1 X78.735 Y71.895 E-.00946
G1 X78.691 Y71.774 E-.03058
G1 X78.691 Y68.634 E-.74573
;WIPE_END
G1 X87.745 Y54.883 F9000
G1 E.8 F1800
G1 F1200
G1 X87.691 Y54.774 E.00381
G1 X87.693 Y49.103 E.17781
;WIDTH:0.427094
G1 X87.712 Y48.366 E.02355
;WIDTH:0.429634
G1 X87.734 Y47.609 E.02435
G1 X87.723 Y47.092 E.01663
;WIDTH:0.459857
G1 X87.682 Y46.412 E.02362
G1 X87.693 Y45.894 E.01796
;WIDTH:0.419999
G1 X87.691 Y40.432 E.17126
;WIDTH:0.445717
G1 X87.767 Y40.324 E.00442
;WIDTH:0.471435
G1 X87.843 Y40.217 E.00468
G1 X102.222 Y40.217 E.51234
G1 X102.317 Y40.324 E.0051
;WIDTH:0.445676
G1 X102.411 Y40.431 E.00477
;WIDTH:0.419999
G1 X102.411 Y54.774 E.44971
G1 X102.336 Y54.925 E.00529
G1 X102.222 Y54.963 E.00377
G1 X87.879 Y54.963 E.44971
G1 X87.778 Y54.929 E.00334
;WIPE_START
G1 F7200
G1 X87.745 Y54.883 E-.01345
G1 X87.691 Y54.774 E-.02889
G1 X87.692 Y51.584 E-.75766
;WIPE_END
G1 X79.16 Y49.541 F9000
G1 E.8 F1800
G1 F1200
G1 X79.059 Y49.354 E.00666
G1 X78.823 Y48.665 E.02284
G1 X78.694 Y47.742 E.02922
G1 X78.73 Y47.025 E.02251
G1 X78.957 Y46.106 E.02968
G1 X79.266 Y45.441 E.02299
G1 X79.811 Y44.686 E.0292
G1 X80.334 Y44.194 E.02251
G1 X80.753 Y43.899 E.01607
G1 X81.572 Y43.503 E.02852
G1 X82.496 Y43.279 E.02981
G1 X83.214 Y43.246 E.02254
G1 X83.719 Y43.295 E.01591
G1 X84.383 Y43.452 E.02139
G1 X85.247 Y43.838 E.02967
G1 X85.836 Y44.249 E.02252
G1 X86.494 Y44.929 E.02967
G1 X86.886 Y45.531 E.02252
G1 X87.099 Y45.988 E.01581
;WIDTH:0.459857
G1 X87.268 Y46.449 E.01702
G1 X87.348 Y47.125 E.0236
;WIDTH:0.424298
G1 X87.334 Y48.281 E.03666
G1 X87.183 Y48.985 E.02283
;WIDTH:0.419999
G1 X86.901 Y49.647 E.02256
G1 X86.369 Y50.43 E.02968
G1 X85.677 Y51.082 E.02981
G1 X84.86 Y51.569 E.02982
G1 X84.185 Y51.812 E.02249
G1 X83.25 Y51.957 E.02967
G1 X82.301 Y51.897 E.02981
G1 X81.388 Y51.632 E.02981
G1 X80.748 Y51.305 E.02253
G1 X80.004 Y50.721 E.02966
G1 X79.401 Y49.986 E.02981
G1 X79.189 Y49.594 E.01397
;WIPE_START
G1 F7200
G1 X79.16 Y49.541 E-.01435
G1 X79.059 Y49.354 E-.05048
G1 X78.823 Y48.665 E-.17297
G1 X78.694 Y47.742 E-.22134
G1 X78.73 Y47.025 E-.1705
G1 X78.902 Y46.329 E-.17036
;WIPE_END
G1 X120.358 Y54.883 F9000
G1 E.8 F1800
G1 F1200
G1 X120.338 Y54.923 E.0014
G1 X120.222 Y54.963 E.00385
G1 X105.879 Y54.963 E.44971
G1 X105.765 Y54.925 E.00377
G1 X105.691 Y54.774 E.00527
G1 X105.691 Y40.431 E.44971
;WIDTH:0.445666
G1 X105.767 Y40.324 E.0044
;WIDTH:0.471332
G1 X105.843 Y40.217 E.00468
G1 X120.222 Y40.217 E.51222
G1 X120.317 Y40.324 E.0051
;WIDTH:0.445625
G1 X120.411 Y40.431 E.00477
;WIDTH:0.419999
G1 X120.411 Y54.774 E.44971
G1 X120.384 Y54.829 E.00192
;WIPE_START
G1 F7200
G1 X120.358 Y54.883 E-.01423
G1 X120.338 Y54.923 E-.01062
G1 X120.222 Y54.963 E-.02914
G1 X117.081 Y54.963 E-.74601
;WIPE_END
G1 X114.486 Y57.048 F9000
G1 E.8 F1800
;TYPE:Perimeter
G1 F1200
G1 X114.54 Y56.979 E.00275
G1 X114.879 Y56.866 E.0112
G1 X129.222 Y56.866 E.44971
G1 X129.57 Y56.986 E.01154
G1 X129.751 Y57.229 E.0095
G1 X129.788 Y57.431 E.00644
G1 X129.788 Y71.774 E.44971
G1 X129.754 Y71.967 E.00614
G1 X129.68 Y72.107 E.00497
G1 X129.543 Y72.24 E.00599
G1 X129.222 Y72.34 E.01054
G1 X114.879 Y72.34 E.44971
G1 X114.589 Y72.26 E.00943
G1 X114.446 Y72.137 E.00591
G1 X114.35 Y71.973 E.00596
G1 X114.314 Y71.774 E.00634
G1 X114.314 Y57.431 E.44971
G1 X114.357 Y57.214 E.00694
G1 X114.449 Y57.095 E.00472
G1 X114.745 Y57.323 F9000
;TYPE:External perimeter
G1 F1200
G1 X114.766 Y57.281 E.00147
G1 X114.879 Y57.243 E.00374
G1 X129.222 Y57.243 E.44971
G1 X129.338 Y57.283 E.00385
G1 X129.411 Y57.431 E.00517
G1 X129.411 Y71.774 E.44971
G1 X129.375 Y71.885 E.00366
G1 X129.222 Y71.963 E.00538
G1 X114.879 Y71.963 E.44971
G1 X114.735 Y71.895 E.00499
G1 X114.691 Y71.82 E.00273
G1 X114.691 Y57.431 E.45116
G1 X114.718 Y57.376 E.00192
;WIPE_START
G1 F7200
G1 X114.745 Y57.323 E-.01413
G1 X114.766 Y57.281 E-.01115
G1 X114.879 Y57.243 E-.02831
G1 X118.022 Y57.243 E-.74641
;WIPE_END
G1 X129.616 Y74.037 F9000
G1 E.8 F1800
;TYPE:Perimeter
G1 F1200
G1 X129.68 Y74.099 E.00279
G1 X129.754 Y74.238 E.00494
G1 X129.788 Y74.431 E.00614
G1 X129.788 Y88.774 E.44971
G1 X129.754 Y88.967 E.00614
G1 X129.68 Y89.107 E.00497
G1 X129.543 Y89.24 E.00599
G1 X129.222 Y89.34 E.01054
G1 X114.879 Y89.34 E.44971
