; generated by PrusaSlicer 2.9.4 on 2026-03-11 at 13:14:55 UTC

; 

; external perimeters extrusion width = 0.42mm
; perimeters extrusion width = 0.44mm
; infill extrusion width = 0.44mm
; solid infill extrusion width = 0.44mm
; top infill extrusion width = 0.40mm
; support material extrusion width = 0.36mm
; first layer extrusion width = 0.42mm

;TYPE:Custom
G90 ; use absolute coordinates
M83 ; extruder relative mode
M140 S60 ; set final bed temp
M104 S150 ; set temporary nozzle temp to prevent oozing during homing and auto bed leveling
G4 S10 ; allow partial nozzle warmup
G28 ; home all axis

G1 Z50 F240
G1 X2 Y10 F3000
M104 S210 ; set final nozzle temp
M190 S60 ; wait for bed temp to stabilize
M109 S210 ; wait for nozzle temp to stabilize
G1 Z0.28 F240
G92 E0
G1 Y140 E10 F1500 ; prime the nozzle
G1 X2.3 F5000
G92 E0
G1 Y10 E10 F1200 ; prime the nozzle
G92 E0

M300 S300 P200 ; beep
G21 ; set units to millimeters
G90 ; use absolute coordinates
M83 ; use relative distances for extrusion
; Filament gcode

; play sound when print starts
M300 S523 P100
M107
;LAYER_CHANGE
;Z:0.2
;HEIGHT:0.2
G1 E-.8 F1800
G1 Z.8 F9000
G1 X38.118 Y22.974
G1 Z.2
G1 E.8 F1800
M204 S500
;TYPE:Perimeter
;WIDTH:0.419999
G1 F1200
G1 X38.13 Y22.986 E.00053
G1 X37.572 Y22.918 E.01763
G1 X36.973 Y22.932 E.01879
G1 X36.269 Y23.028 E.02228
G1 X35.273 Y23.292 E.03231
G1 X34.428 Y23.666 E.02897
G1 X33.964 Y23.934 E.0168
G1 X33.326 Y24.411 E.02498
G1 X32.795 Y24.895 E.02253
G1 X32.302 Y25.459 E.02349
G1 X31.75 Y26.321 E.03209
G1 X31.427 Y27.019 E.02411
G1 X31.243 Y27.575 E.01836
G1 X31.085 Y28.2 E.02021
G1 X30.982 Y28.985 E.02482
G1 X30.974 Y29.516 E.01665
G1 X31.042 Y30.081 E.01784
G1 X30.621 Y29.649 E.01891
G1 X30.114 Y29.027 E.02516
G1 X29.781 Y28.462 E.02056
G1 X29.566 Y27.982 E.01649
G1 X29.352 Y27.256 E.02373
G1 X29.259 Y26.7 E.01768
G1 X29.242 Y26.173 E.01653
G1 X29.268 Y25.617 E.01745
G1 X29.351 Y25.108 E.01617
G1 X29.491 Y24.608 E.01628
G1 X29.793 Y23.891 E.02439
G1 X30.051 Y23.445 E.01616
G1 X30.419 Y22.959 E.01911
G1 X30.782 Y22.566 E.01677
G1 X31.182 Y22.225 E.01648
G1 X31.762 Y21.84 E.02183
G1 X32.237 Y21.6 E.01669
G1 X32.724 Y21.413 E.01636
G1 X33.225 Y21.284 E.01622
G1 X33.738 Y21.207 E.01626
G1 X34.339 Y21.179 E.01886
G1 X35.204 Y21.271 E.02727
G1 X35.859 Y21.445 E.02125
G1 X36.489 Y21.708 E.02141
G1 X37.077 Y22.055 E.02141
G1 X37.619 Y22.483 E.02165
G1 X38.075 Y22.932 E.02007
;WIPE_START
G1 F7200
G1 X38.118 Y22.974 E-.01428
G1 X38.13 Y22.986 E-.00403
G1 X37.572 Y22.918 E-.13351
G1 X36.973 Y22.932 E-.1423
G1 X36.269 Y23.028 E-.16875
G1 X35.273 Y23.292 E-.24472
G1 X34.917 Y23.449 E-.09241
;WIPE_END
G1 Z.8 F9000
G1 X39.176 Y23.691
G1 Z.2
G1 E.8 F1800
;TYPE:External perimeter
G1 F1200
G1 X39.179 Y23.696 E.00018
G1 X38.652 Y23.56 E.01707
G1 X38.132 Y23.366 E.0174
G1 X37.577 Y23.295 E.01754
G1 X37.024 Y23.305 E.01734
G1 X36.32 Y23.401 E.02228
G1 X35.421 Y23.639 E.02916
G1 X34.614 Y23.993 E.02763
G1 X34.179 Y24.244 E.01575
G1 X33.574 Y24.695 E.02366
G1 X33.079 Y25.143 E.02093
G1 X32.51 Y25.824 E.02782
G1 X32.086 Y26.492 E.02481
G1 X31.777 Y27.16 E.02308
G1 X31.606 Y27.676 E.01704
G1 X31.459 Y28.25 E.01858
G1 X31.359 Y28.991 E.02344
G1 X31.353 Y29.553 E.01762
G1 X31.433 Y30.119 E.01792
G1 X31.621 Y30.61 E.01648
G1 X31.763 Y31.13 E.0169
G1 X31.311 Y30.887 E.01609
G1 X30.114 Y29.65 E.05397
G1 X29.8 Y29.237 E.01627
G1 X29.424 Y28.6 E.02319
G1 X29.209 Y28.103 E.01698
G1 X28.969 Y27.278 E.02694
G1 X28.883 Y26.734 E.01727
G1 X28.862 Y26.088 E.02027
G1 X28.892 Y25.586 E.01577
G1 X28.982 Y25.027 E.01775
G1 X29.138 Y24.477 E.01793
G1 X29.453 Y23.729 E.02545
G1 X29.738 Y23.234 E.01791
G1 X30.119 Y22.732 E.01976
G1 X30.521 Y22.293 E.01866
G1 X30.961 Y21.92 E.01809
G1 X31.57 Y21.516 E.02291
G1 X32.075 Y21.259 E.01777
G1 X32.609 Y21.054 E.01793
G1 X33.161 Y20.913 E.01786
G1 X33.707 Y20.831 E.01731
G1 X34.359 Y20.802 E.02046
G1 X35.272 Y20.899 E.02879
G1 X35.98 Y21.087 E.02297
G1 X36.658 Y21.37 E.02304
G1 X37.29 Y21.743 E.02301
G1 X37.869 Y22.2 E.02313
G1 X38.92 Y23.234 E.04623
G1 X39.147 Y23.639 E.01456
;WIPE_START
G1 F7200
G1 X39.176 Y23.691 E-.01414
G1 X39.179 Y23.696 E-.00138
G1 X38.652 Y23.56 E-.12926
G1 X38.132 Y23.366 E-.13181
G1 X37.577 Y23.295 E-.13289
G1 X37.024 Y23.305 E-.13136
G1 X36.32 Y23.401 E-.16875
G1 X35.952 Y23.498 E-.09041
;WIPE_END
G1 Z.8 F9000
G1 X35.811 Y21.557
G1 Z.2
G1 E.8 F1800
;TYPE:Solid infill
;WIDTH:0.422661
G1 F1200
G1 X36.903 Y22.648 E.04874
G1 X36.43 Y22.713 E.01508
G1 X35.319 Y21.602 E.04961
G1 X35.151 Y21.557 E.00549
G1 X34.688 Y21.508 E.0147
G1 X35.977 Y22.797 E.05756
G1 X35.557 Y22.914 E.01377
G1 X34.114 Y21.471 E.06444
G1 X33.617 Y21.511 E.01574
G1 X35.139 Y23.033 E.06796
G1 X34.763 Y23.194 E.01292
G1 X33.165 Y21.596 E.07136
G1 X32.747 Y21.715 E.01372
G1 X34.39 Y23.358 E.07337
G1 X34.047 Y23.552 E.01244
G1 X32.358 Y21.863 E.07542
G1 X31.997 Y22.039 E.01268
G1 X33.713 Y23.755 E.07663
G1 X33.396 Y23.976 E.0122
G1 X31.66 Y22.239 E.07754
G1 X31.348 Y22.464 E.01215
G1 X33.105 Y24.221 E.07846
G1 X32.819 Y24.472 E.01202
G1 X31.058 Y22.711 E.07864
G1 X30.983 Y22.776 E.00313
G1 X30.789 Y22.979 E.00887
G1 X32.547 Y24.738 E.07853
G1 X32.297 Y25.024 E.01199
G1 X30.546 Y23.273 E.07819
G1 X30.314 Y23.578 E.0121
G1 X32.05 Y25.315 E.07754
G1 X31.836 Y25.637 E.01221
G1 X30.111 Y23.913 E.07701
G1 X29.934 Y24.272 E.01264
G1 X31.621 Y25.959 E.07533
G1 X31.433 Y26.308 E.01252
G1 X29.782 Y24.658 E.0737
G1 X29.661 Y25.073 E.01365
G1 X31.257 Y26.669 E.07127
G1 X31.102 Y27.051 E.01302
G1 X29.573 Y25.523 E.06825
G1 X29.527 Y26.014 E.01557
G1 X30.978 Y27.464 E.06477
G1 X30.862 Y27.886 E.01382
G1 X29.545 Y26.569 E.05881
G1 X29.636 Y27.196 E.02001
G1 X30.774 Y28.334 E.05082
G1 X30.709 Y28.807 E.01508
G1 X29.595 Y27.692 E.04977
;WIPE_START
G1 F7200
G1 X30.709 Y28.807 E-.37433
G1 X30.774 Y28.334 E-.11339
G1 X29.844 Y27.404 E-.31228
;WIPE_END
G1 Z.8 F9000
G1 X41.38 Y61.307
G1 Z.2
G1 E.8 F1800
;TYPE:External perimeter
;WIDTH:0.420614
G1 F1200
G1 X41.247 Y61.221 E.00497
G1 X41.213 Y61.114 E.00353
;WIDTH:0.42
G1 X41.213 Y57.076 E.12661
;WIDTH:0.464035
G1 X41.213 Y57.008 E.00238
;WIDTH:0.508069
G1 X41.213 Y56.94 E.00263
G1 X41.31 Y56.913 E.00389
;WIDTH:0.464035
G1 X41.406 Y56.887 E.00348
;WIDTH:0.42
G1 X44.518 Y56.887 E.09757
;WIDTH:0.420646
G1 X44.836 Y56.94 E.01013
G1 X44.833 Y59.003 E.06479
;WIDTH:0.419999
G1 X44.812 Y59.118 E.00367
G1 X41.723 Y61.281 E.11824
G1 X41.636 Y61.34 E.0033
G1 X41.447 Y61.35 E.00593
;WIDTH:0.420614
G1 X41.431 Y61.339 E.00061
G1 X40.667 Y61.313 F9000
;WIDTH:0.420769
G1 F1200
G1 X40.758 Y61.267 E.0032
;WIDTH:0.42
G1 X40.836 Y61.114 E.00538
G1 X40.836 Y56.94 E.13087
G1 X40.518 Y56.887 E.01011
G1 X33.503 Y56.887 E.21995
G1 X32.968 Y56.823 E.01689
;WIDTH:0.419321
G1 X32.904 Y56.735 E.00341
G1 X32.942 Y56.598 E.00445
G1 X33.059 Y56.549 E.00397
;WIDTH:0.42
G1 X33.538 Y56.51 E.01507
G1 X40.524 Y56.51 E.21904
;WIDTH:0.460268
G1 X40.778 Y56.538 E.00887
;WIDTH:0.500535
G1 X41.032 Y56.567 E.00973
G1 X41.282 Y56.538 E.00958
;WIDTH:0.460268
G1 X41.531 Y56.51 E.0087
;WIDTH:0.42
G1 X44.524 Y56.51 E.09384
;WIDTH:0.460298
G1 X44.778 Y56.538 E.00887
;WIDTH:0.500595
G1 X45.032 Y56.567 E.00973
G1 X45.282 Y56.538 E.00958
;WIDTH:0.460301
G1 X45.531 Y56.51 E.0087
;WIDTH:0.420193
G1 X48.516 Y56.51 E.09364
;WIDTH:0.459766
G1 X49.08 Y56.592 E.01975
G1 X49.15 Y56.698 E.0044
G1 X49.214 Y57.198 E.01747
;WIDTH:0.420139
G1 X49.214 Y61.763 E.14319
;WIDTH:0.428835
G1 X49.127 Y62.133 E.0122
G1 X48.728 Y62.438 E.01612
;WIDTH:0.419997
G1 X45.543 Y64.668 E.12191
G1 X45.088 Y64.915 E.01623
;WIDTH:0.41799
G1 X44.965 Y64.922 E.00384
G1 X44.892 Y64.83 E.00366
G1 X44.966 Y64.657 E.00587
;WIDTH:0.419997
G1 X45.335 Y64.353 E.01499
G1 X48.812 Y61.919 E.13308
;WIDTH:0.420139
G1 X48.837 Y61.503 E.01307
G1 X48.837 Y57.198 E.13503
;WIDTH:0.459766
G1 X48.798 Y56.932 E.00932
G1 X48.504 Y56.887 E.01031
;WIDTH:0.420193
G1 X45.531 Y56.887 E.09326
;WIDTH:0.460301
G1 X45.376 Y56.911 E.00544
;WIDTH:0.500595
G1 X45.221 Y56.936 E.00597
G1 X45.217 Y57.006 E.00267
;WIDTH:0.460621
G1 X45.213 Y57.077 E.00247
;WIDTH:0.420646
G1 X45.204 Y59.128 E.06442
;WIDTH:0.430695
G1 X45.125 Y59.331 E.00702
G1 X44.727 Y59.637 E.01619
;WIDTH:0.419999
G1 X41.914 Y61.607 E.10768
G1 X41.108 Y62.13 E.03013
G1 X40.327 Y62.718 E.03065
G1 X37.539 Y64.671 E.10673
;WIDTH:0.433563
G1 X37.091 Y64.925 E.01673
G1 X36.987 Y64.926 E.00338
G1 X36.508 Y64.669 E.01766
;WIDTH:0.42
G1 X33.332 Y62.444 E.12159
G1 X32.961 Y62.133 E.01518
;WIDTH:0.418646
G1 X32.897 Y61.992 E.00484
G1 X32.991 Y61.866 E.00491
G1 X33.098 Y61.89 E.00343
;WIDTH:0.42
G1 X33.548 Y62.136 E.01608
G1 X36.716 Y64.354 E.12126
;WIDTH:0.433563
G1 X37.031 Y64.535 E.0118
G1 X37.33 Y64.357 E.0113
;WIDTH:0.42
G1 X40.477 Y62.153 E.12046
G1 X40.533 Y61.91 E.00782
G1 X40.191 Y61.646 E.01355
G1 X37.337 Y59.647 E.10925
G1 X36.96 Y59.333 E.01538
;WIDTH:0.418228
G1 X36.896 Y59.191 E.00486
G1 X36.991 Y59.065 E.00492
G1 X37.098 Y59.09 E.00343
;WIDTH:0.42
G1 X37.544 Y59.332 E.01591
G1 X40.407 Y61.337 E.10959
;WIDTH:0.420769
G1 X40.563 Y61.365 E.00498
G1 X40.613 Y61.34 E.00176
;WIPE_START
G1 F7200
G1 X40.667 Y61.313 E-.01434
G1 X40.758 Y61.267 E-.02422
G1 X40.836 Y61.114 E-.04079
G1 X40.836 Y58.079 E-.72065
;WIPE_END
G1 Z.8 F9000
G1 X40.864 Y51.712
G1 Z.2
G1 E.8 F1800
;TYPE:Perimeter
;WIDTH:0.411338
G1 F1200
G1 X40.795 Y51.752 E.00244
G1 X40.864 Y51.792 E.00244
G1 X40.887 Y51.752 E.00141
G1 X40.668 Y52.083 F9000
;TYPE:External perimeter
;WIDTH:0.419995
G1 F1200
G1 X40.603 Y52.048 E.00231
G1 X40.407 Y52.061 E.00616
G1 X37.548 Y54.064 E.10945
;WIDTH:0.436912
G1 X37.125 Y54.302 E.0159
G1 X36.973 Y54.33 E.00506
G1 X36.504 Y54.064 E.01766
;WIDTH:0.420485
G1 X33.363 Y51.853 E.12059
;WIDTH:0.456486
G1 X33.185 Y51.683 E.00846
;WIDTH:0.499189
G1 X33.008 Y51.512 E.00934
G1 X32.938 Y51.391 E.0053
G1 X33.118 Y51.195 E.0101
;WIDTH:0.456247
G1 X33.297 Y51 E.0091
;WIDTH:0.42
G1 X33.724 Y50.678 E.01677
G1 X36.885 Y48.465 E.12099
G1 X37.085 Y48.46 E.00627
;WIDTH:0.388
G1 X37.162 Y48.56 E.00362
G1 X37.128 Y48.705 E.00427
;WIDTH:0.420044
G1 X36.721 Y49.04 E.01653
G1 X33.588 Y51.234 E.11994
;WIDTH:0.459617
G1 X33.521 Y51.315 E.00364
;WIDTH:0.499189
G1 X33.454 Y51.397 E.00402
G1 X33.515 Y51.473 E.0037
;WIDTH:0.456485
G1 X33.575 Y51.549 E.00333
;WIDTH:0.420485
G1 X36.721 Y53.755 E.12063
;WIDTH:0.436912
G1 X37.026 Y53.935 E.0116
G1 X37.332 Y53.755 E.01163
;WIDTH:0.420001
G1 X44.101 Y49.014 E.25912
G1 X44.58 Y48.712 E.01775
G1 X45.025 Y48.462 E.016
G1 X45.469 Y48.711 E.01596
G1 X45.941 Y49.008 E.01749
G1 X48.948 Y51.114 E.11511
;WIDTH:0.428365
G1 X49.178 Y51.363 E.01086
G1 X49.213 Y51.872 E.01635
;WIDTH:0.42
G1 X49.213 Y53.72 E.05794
G1 X49.151 Y54.256 E.01692
;WIDTH:0.417212
G1 X49.015 Y54.331 E.00483
G1 X48.881 Y54.225 E.00532
;WIDTH:0.42
G1 X48.836 Y53.709 E.01624
G1 X48.836 Y51.527 E.06842
G1 X48.509 Y51.266 E.01312
G1 X45.644 Y49.261 E.10964
G1 X45.447 Y49.247 E.00619
G1 X45.291 Y49.33 E.00554
G1 X45.213 Y49.483 E.00538
G1 X45.213 Y53.712 E.1326
G1 X45.181 Y54.146 E.01364
;WIDTH:0.419575
G1 X45.104 Y54.303 E.00548
G1 X44.955 Y54.312 E.00468
G1 X44.895 Y54.212 E.00365
;WIDTH:0.420094
G1 X44.836 Y53.712 E.01579
G1 X44.836 Y49.483 E.13263
G1 X44.803 Y49.376 E.00351
G1 X44.603 Y49.247 E.00746
G1 X44.416 Y49.256 E.00587
G1 X41.294 Y51.44 E.11949
;WIDTH:0.420454
G1 X41.214 Y51.595 E.00548
G1 X41.213 Y53.719 E.06668
;WIDTH:0.420009
G1 X41.158 Y54.204 E.0153
;WIDTH:0.418529
G1 X41.09 Y54.317 E.00412
G1 X40.973 Y54.325 E.00366
G1 X40.884 Y54.232 E.00402
;WIDTH:0.420009
G1 X40.836 Y53.728 E.01587
;WIDTH:0.420454
G1 X40.836 Y52.284 E.04533
G1 X40.734 Y52.117 E.00614
;WIDTH:0.419995
G1 X40.722 Y52.11 E.00044
;WIPE_START
G1 F7200
G1 X40.668 Y52.083 E-.01434
G1 X40.603 Y52.048 E-.01753
G1 X40.407 Y52.061 E-.04665
G1 X37.919 Y53.804 E-.72148
;WIPE_END
G1 Z.8 F9000
G1 X57.739 Y45.225
G1 Z.2
G1 E.8 F1800
;WIDTH:0.514187
G1 F1200
G1 X57.737 Y45.217 E.00032
;WIDTH:0.467032
G1 X57.713 Y45.122 E.00346
;WIDTH:0.419876
G1 X57.713 Y43.476 E.05159
;WIDTH:0.463856
G1 X57.756 Y43.225 E.00891
G1 X58.001 Y43.188 E.00867
;WIDTH:0.419815
G1 X63.041 Y43.188 E.15795
;WIDTH:0.46245
G1 X63.302 Y43.234 E.00925
G1 X63.336 Y43.475 E.00849
;WIDTH:0.419876
G1 X63.336 Y45.122 E.05162
;WIDTH:0.42
G1 X63.289 Y45.311 E.00611
G1 X57.902 Y45.311 E.16891
;WIDTH:0.467094
G1 X57.831 Y45.311 E.0025
;WIDTH:0.514187
G1 X57.761 Y45.311 E.00274
G1 X57.754 Y45.284 E.00109
G1 X57.739 Y45.774 F9000
;WIDTH:0.419998
G1 F1200
G1 X57.713 Y45.877 E.00333
G1 X57.713 Y48.485 E.08177
G1 X57.693 Y48.986 E.01572
;WIDTH:0.387898
G1 X57.579 Y49.131 E.00529
G1 X57.431 Y49.11 E.00429
G1 X57.356 Y48.988 E.00411
;WIDTH:0.419998
G1 X57.336 Y48.485 E.01578
G1 X57.336 Y45.877 E.08177
;WIDTH:0.467045
G1 X57.36 Y45.688 E.00672
;WIDTH:0.514187
G1 X57.384 Y45.499 E.00747
G1 X57.36 Y45.311 E.00743
;WIDTH:0.467032
G1 X57.337 Y45.122 E.00671
;WIDTH:0.419876
G1 X57.337 Y43.476 E.05159
;WIDTH:0.465397
G1 X57.408 Y42.983 E.0175
G1 X57.547 Y42.867 E.00636
;WIDTH:0.463856
G1 X58.001 Y42.811 E.01601
;WIDTH:0.419815
G1 X63.055 Y42.811 E.15839
;WIDTH:0.462756
G1 X63.573 Y42.892 E.0183
G1 X63.638 Y42.973 E.00363
G1 X63.713 Y43.475 E.01772
;WIDTH:0.419876
G1 X63.713 Y45.122 E.05162
;WIDTH:0.467032
G1 X63.69 Y45.311 E.00671
;WIDTH:0.514187
G1 X63.666 Y45.499 E.00743
G1 X63.69 Y45.688 E.00747
;WIDTH:0.467046
G1 X63.713 Y45.877 E.00671
;WIDTH:0.419999
G1 X63.713 Y48.485 E.08177
G1 X63.694 Y48.995 E.016
;WIDTH:0.386845
G1 X63.601 Y49.121 E.00448
G1 X63.468 Y49.138 E.00383
G1 X63.357 Y49 E.00506
;WIDTH:0.419999
G1 X63.336 Y48.492 E.01594
G1 X63.336 Y45.877 E.08199
;WIDTH:0.467046
G1 X63.313 Y45.782 E.00345
;WIDTH:0.514187
G1 X63.289 Y45.688 E.0038
G1 X63.218 Y45.688 E.00278
;WIDTH:0.467094
G1 X63.148 Y45.688 E.00247
;WIDTH:0.419998
G1 X57.761 Y45.688 E.1689
G1 X57.754 Y45.715 E.00087
;WIPE_START
G1 F7200
G1 X57.739 Y45.774 E-.01446
G1 X57.713 Y45.877 E-.02523
G1 X57.713 Y48.485 E-.6194
G1 X57.693 Y48.986 E-.11908
G1 X57.636 Y49.058 E-.02183
;WIPE_END
G1 Z.8 F9000
G1 X66.398 Y42.949
G1 Z.2
G1 E.8 F1800
;WIDTH:0.420002
G1 F1200
G1 X66.4 Y42.937 E.00038
;WIDTH:0.419523
G1 X66.54 Y42.874 E.00481
G1 X66.654 Y42.96 E.00447
;WIDTH:0.420002
G1 X66.713 Y43.452 E.01554
;WIDTH:0.420275
G1 X66.72 Y46.167 E.08519
;WIDTH:0.42323
G1 X66.798 Y46.658 E.01572
;WIDTH:0.425535
G1 X66.955 Y47.115 E.01537
;WIDTH:0.430619
G1 X67.187 Y47.529 E.0153
G1 X67.489 Y47.935 E.01631
;WIDTH:0.419474
G1 X68.046 Y48.383 E.02238
;WIDTH:0.431428
G1 X68.424 Y48.566 E.01357
G1 X68.855 Y48.722 E.01481
;WIDTH:0.42411
G1 X69.55 Y48.808 E.0222
;WIDTH:0.417635
G1 X70.307 Y48.696 E.02384
;WIDTH:0.42383
G1 X71.05 Y48.353 E.02592
G1 X71.594 Y47.897 E.02248
;WIDTH:0.417596
G1 X72.007 Y47.314 E.02226
;WIDTH:0.42607
G1 X72.157 Y46.958 E.01231
G1 X72.283 Y46.486 E.01556
G1 X72.332 Y45.98 E.0162
;WIDTH:0.423026
G1 X72.336 Y43.452 E.0799
;WIDTH:0.420029
G1 X72.368 Y43.052 E.01258
;WIDTH:0.419528
G1 X72.42 Y42.936 E.00398
G1 X72.515 Y42.868 E.00366
G1 X72.651 Y42.944 E.00488
;WIDTH:0.420029
G1 X72.713 Y43.453 E.01608
;WIDTH:0.423026
G1 X72.712 Y46.153 E.08534
G1 X72.576 Y46.891 E.02372
;WIDTH:0.420198
G1 X72.365 Y47.443 E.01854
;WIDTH:0.430973
G1 X72.066 Y47.912 E.01795
G1 X71.696 Y48.326 E.01792
;WIDTH:0.427598
G1 X71.214 Y48.697 E.01946
;WIDTH:0.431669
G1 X70.769 Y48.926 E.01618
G1 X70.243 Y49.1 E.01791
;WIDTH:0.42411
G1 X69.452 Y49.179 E.0252
G1 X68.77 Y49.092 E.02179
;WIDTH:0.431428
G1 X68.25 Y48.912 E.01778
G1 X67.608 Y48.537 E.02402
;WIDTH:0.430007
G1 X67.167 Y48.138 E.01914
;WIDTH:0.430619
G1 X66.858 Y47.733 E.01642
G1 X66.595 Y47.245 E.01787
;WIDTH:0.425535
G1 X66.423 Y46.718 E.01764
;WIDTH:0.42323
G1 X66.342 Y46.181 E.01717
;WIDTH:0.420275
G1 X66.336 Y43.44 E.08601
;WIDTH:0.420002
G1 X66.391 Y43.009 E.01362
;WIPE_START
G1 F7200
G1 X66.398 Y42.949 E-.01435
G1 X66.4 Y42.937 E-.00289
G1 X66.54 Y42.874 E-.03646
G1 X66.654 Y42.96 E-.03392
G1 X66.713 Y43.452 E-.11769
G1 X66.719 Y45.956 E-.59469
;WIPE_END
G1 Z.8 F9000
G1 X78.251 Y48.785
G1 Z.2
G1 E.8 F1800
;WIDTH:0.51413
G1 F1200
G1 X78.242 Y48.787 E.00036
;WIDTH:0.466973
G1 X78.148 Y48.811 E.00342
;WIDTH:0.419815
G1 X76.009 Y48.811 E.06703
;WIDTH:0.460546
