; generated by PrusaSlicer 2.9.4 on 2026-03-26 at 15:07:38 UTC

; 

; external perimeters extrusion width = 0.42mm
; perimeters extrusion width = 0.44mm
; infill extrusion width = 0.44mm
; solid infill extrusion width = 0.44mm
; top infill extrusion width = 0.40mm
; support material extrusion width = 0.36mm
; first layer extrusion width = 0.42mm

;TYPE:Custom
G90 ; use absolute coordinates
M83 ; extruder relative mode
M140 S60 ; set final bed temp
M104 S150 ; set temporary nozzle temp to prevent oozing during homing and auto bed leveling
G4 S10 ; allow partial nozzle warmup
G28 ; home all axis

G1 Z50 F240
G1 X2 Y10 F3000
M104 S210 ; set final nozzle temp
M190 S60 ; wait for bed temp to stabilize
M109 S210 ; wait for nozzle temp to stabilize
G1 Z0.28 F240
G92 E0
G1 Y140 E10 F1500 ; prime the nozzle
G1 X2.3 F5000
G92 E0
G1 Y10 E10 F1200 ; prime the nozzle
G92 E0

M300 S300 P200 ; beep
G21 ; set units to millimeters
G90 ; use absolute coordinates
M83 ; use relative distances for extrusion
; Filament gcode

; play sound when print starts
M300 S523 P100
M107
;LAYER_CHANGE
;Z:0.2
;HEIGHT:0.2
G1 E-.8 F1800
G1 Z.2 F9000
G1 X65.686 Y54.16
G1 E.8 F1800
M204 S500
;TYPE:Skirt/Brim
;WIDTH:0.42
G1 F1200
G1 X66.991 Y53.106 E.0526
G1 X68.515 Y52.763 E.04898
G1 X73.015 Y52.763 E.14109
G1 X74.646 Y53.158 E.05262
G1 X75.915 Y54.254 E.05257
G1 X76.581 Y56.329 E.06833
G1 X76.581 Y72.929 E.52048
G1 X76.492 Y73.719 E.02493
G1 X73.992 Y84.719 E.35369
G1 X73.247 Y86.221 E.05257
G1 X71.897 Y87.216 E.05258
G1 X70.515 Y87.495 E.04421
G1 X68.515 Y87.495 E.06271
G1 X66.885 Y87.1 E.05259
G1 X65.85 Y86.297 E.04107
G1 X62.07 Y82.042 E.17845
G1 X61.282 Y80.561 E.0526
G1 X61.17 Y79.674 E.02803
G1 X61.227 Y76.548 E.09803
G1 X65.007 Y55.693 E.66455
G1 X65.662 Y54.215 E.05069
G1 X66.014 Y54.376 F9000
G1 F1200
G1 X66.039 Y54.32 E.00192
G1 X67.312 Y53.376 E.04969
G1 X68.515 Y53.141 E.03843
G1 X73.015 Y53.141 E.14109
G1 X74.55 Y53.534 E.04968
G1 X75.706 Y54.618 E.04969
G1 X76.204 Y56.329 E.05587
G1 X76.204 Y72.929 E.52048
G1 X76.125 Y73.636 E.02231
G1 X73.625 Y84.636 E.35369
G1 X72.901 Y86.045 E.04967
G1 X71.587 Y86.932 E.04971
G1 X70.515 Y87.118 E.03411
G1 X68.515 Y87.118 E.06271
G1 X66.981 Y86.724 E.04966
G1 X66.132 Y86.047 E.03405
G1 X62.352 Y81.791 E.17848
G1 X61.547 Y79.674 E.07101
G1 X61.598 Y76.616 E.09589
G1 X65.378 Y55.76 E.66458
G1 X65.989 Y54.431 E.04586
;WIPE_START
G1 F7200
G1 X66.014 Y54.376 E-.01435
G1 X66.039 Y54.32 E-.01457
G1 X67.312 Y53.376 E-.3764
G1 X68.515 Y53.141 E-.29111
G1 X68.951 Y53.141 E-.10357
;WIPE_END
G1 X69.957 Y72.386 F9000
G1 E.8 F1800
;TYPE:Perimeter
;WIDTH:0.45719
G1 F1200
G1 X69.873 Y72.531 E.00577
;WIDTH:0.494381
G1 X69.741 Y72.758 E.00986
G1 X69.741 Y77.738 E.18694
G1 X69.76 Y78.084 E.01301
;WIDTH:0.45719
G1 X69.778 Y78.429 E.0119
G1 X69.76 Y78.876 E.01541
;WIDTH:0.494381
G1 X69.741 Y79.322 E.01676
G1 X69.741 Y83.155 E.14389
G1 X69.29 Y83.155 E.01693
G1 X69.29 Y79.322 E.14389
G1 X69.144 Y79.086 E.01042
;WIDTH:0.45719
G1 X68.998 Y78.85 E.00956
;WIDTH:0.466367
G1 X68.894 Y78.796 E.00413
;WIDTH:0.512735
G1 X68.791 Y78.741 E.00456
;WIDTH:0.559103
G1 X68.687 Y78.687 E.00503
G1 X65.722 Y78.687 E.12726
G1 X65.722 Y78.171 E.02215
G1 X68.687 Y78.171 E.12726
G1 X68.791 Y78.117 E.00503
;WIDTH:0.512735
G1 X68.894 Y78.063 E.00454
;WIDTH:0.466367
G1 X68.998 Y78.008 E.00414
;WIDTH:0.460329
G1 X69.141 Y77.824 E.00809
;WIDTH:0.500658
G1 X69.284 Y77.641 E.00884
G1 X69.29 Y77.536 E.004
;WIDTH:0.494381
G1 X69.29 Y72.758 E.17936
G1 X69.271 Y72.343 E.0156
;WIDTH:0.45719
G1 X69.253 Y71.929 E.01427
;WIDTH:0.419999
G1 X69.253 Y57.066 E.46602
G1 X72.278 Y57.066 E.09485
G1 X72.278 Y72.192 E.47426
G1 X70.344 Y72.192 E.06064
G1 X70.005 Y72.305 E.0112
;WIDTH:0.45719
G1 X69.988 Y72.335 E.00119
G1 X70.21 Y72.649 F9000
;TYPE:External perimeter
;WIDTH:0.419999
G1 F1200
G1 X70.155 Y72.758 E.00383
G1 X70.155 Y83.569 E.33897
G1 X68.875 Y83.569 E.04013
G1 X68.875 Y79.322 E.13316
G1 X68.791 Y79.165 E.00558
G1 X68.687 Y79.134 E.0034
G1 X65.275 Y79.134 E.10698
G1 X65.275 Y77.724 E.04421
G1 X68.687 Y77.724 E.10698
G1 X68.791 Y77.693 E.0034
G1 X68.875 Y77.536 E.00558
G1 X68.875 Y56.689 E.65364
G1 X72.655 Y56.689 E.11852
G1 X72.655 Y72.569 E.49791
G1 X70.344 Y72.569 E.07246
G1 X70.243 Y72.603 E.00334
;WIPE_START
G1 F7200
G1 X70.21 Y72.649 E-.01345
G1 X70.155 Y72.758 E-.029
G1 X70.155 Y75.948 E-.75755
;WIPE_END
G1 X69.652 Y78.506 F9000
G1 E.8 F1800
;TYPE:Solid infill
;WIDTH:0.495415
G1 F1200
G1 X69.269 Y78.124 E.02035
G1 X69.171 Y78.241 E.00574
G1 X68.919 Y78.413 E.01148
G1 X69.602 Y79.097 E.03637
;WIPE_START
G1 F7200
G1 X68.919 Y78.413 E-.22957
G1 X69.171 Y78.241 E-.07246
G1 X69.269 Y78.124 E-.03625
G1 X69.652 Y78.506 E-.12847
;WIPE_END
G1 E-.33325 F1800
G1 X71.394 Y57.187 F9000
G1 E.8 F1800
;WIDTH:0.420792
G1 F1200
G1 X71.988 Y57.781 E.02639
G1 X71.988 Y58.315 E.01678
G1 X71.029 Y57.357 E.04259
G1 X70.495 Y57.357 E.01678
G1 X71.988 Y58.85 E.06634
G1 X71.988 Y59.384 E.01678
G1 X69.96 Y57.357 E.09009
G1 X69.543 Y57.357 E.0131
G1 X69.543 Y57.473 E.00364
G1 X71.988 Y59.919 E.10867
G1 X71.988 Y60.453 E.01678
G1 X69.543 Y58.008 E.10864
G1 X69.543 Y58.542 E.01678
G1 X71.988 Y60.987 E.10864
G1 X71.988 Y61.522 E.01681
G1 X69.543 Y59.077 E.10864
G1 X69.543 Y59.611 E.01678
G1 X71.988 Y62.056 E.10864
G1 X71.988 Y62.591 E.01681
G1 X69.543 Y60.145 E.10867
G1 X69.543 Y60.68 E.01681
G1 X71.988 Y63.125 E.10864
G1 X71.988 Y63.659 E.01678
G1 X69.543 Y61.214 E.10864
G1 X69.543 Y61.749 E.01681
G1 X71.988 Y64.194 E.10864
G1 X71.988 Y64.728 E.01678
G1 X69.543 Y62.283 E.10864
G1 X69.543 Y62.817 E.01678
G1 X71.988 Y65.263 E.10867
G1 X71.988 Y65.797 E.01678
G1 X69.543 Y63.352 E.10864
G1 X69.543 Y63.886 E.01678
G1 X71.988 Y66.331 E.10864
G1 X71.988 Y66.866 E.01681
G1 X69.543 Y64.421 E.10864
G1 X69.543 Y64.955 E.01678
G1 X71.988 Y67.4 E.10864
G1 X71.988 Y67.935 E.01681
G1 X69.543 Y65.489 E.10867
G1 X69.543 Y66.024 E.01681
G1 X71.988 Y68.469 E.10864
G1 X71.988 Y69.003 E.01678
G1 X69.543 Y66.558 E.10864
G1 X69.543 Y67.093 E.01681
G1 X71.988 Y69.538 E.10864
G1 X71.988 Y70.072 E.01678
G1 X69.543 Y67.627 E.10864
G1 X69.543 Y68.161 E.01678
G1 X71.988 Y70.606 E.10864
G1 X71.988 Y71.141 E.01681
G1 X69.543 Y68.696 E.10864
G1 X69.543 Y69.23 E.01678
G1 X71.988 Y71.675 E.10864
G1 X71.988 Y71.902 E.00713
G1 X71.68 Y71.902 E.00968
G1 X69.543 Y69.765 E.09496
G1 X69.543 Y70.299 E.01678
G1 X71.146 Y71.902 E.07123
G1 X70.611 Y71.902 E.01681
G1 X69.543 Y70.833 E.04748
G1 X69.543 Y71.368 E.01681
G1 X70.14 Y71.964 E.02651
G1 X69.825 Y72.069 E.01043
G1 X69.781 Y72.14 E.00262
G1 X69.373 Y71.732 E.01813
M106 S255
;LAYER_CHANGE
;Z:0.36
;HEIGHT:0.16
;BEFORE_LAYER_CHANGE
G92 E0
;0.36


;WIPE_START
G1 F7200
G1 X69.781 Y72.14 E-.13704
G1 X69.825 Y72.069 E-.01984
G1 X70.14 Y71.964 E-.07886
G1 X69.543 Y71.368 E-.20035
G1 X69.543 Y70.833 E-.12706
G1 X70.248 Y71.538 E-.23685
;WIPE_END
G1 Z.36 F9000
;AFTER_LAYER_CHANGE
;0.36
M104 S200 ; set temperature
G1 X62.331 Y70.456
G1 E.8 F1800
;TYPE:Skirt/Brim
;WIDTH:0.42
G1 F1345
G1 X65.007 Y55.693 E.38491
G1 X65.686 Y54.16 E.04301
G1 X66.991 Y53.106 E.04303
G1 X68.515 Y52.763 E.04008
G1 X73.015 Y52.763 E.11545
G1 X74.646 Y53.158 E.04305
G1 X75.915 Y54.254 E.04302
G1 X76.581 Y56.329 E.05591
G1 X76.581 Y72.929 E.42586
G1 X76.492 Y73.719 E.0204
G1 X73.992 Y84.719 E.2894
G1 X73.247 Y86.221 E.04301
G1 X71.897 Y87.216 E.04302
G1 X70.515 Y87.495 E.03617
G1 X68.515 Y87.495 E.05131
G1 X66.885 Y87.1 E.04303
G1 X65.85 Y86.297 E.03361
G1 X62.07 Y82.042 E.14601
G1 X61.282 Y80.561 E.04304
G1 X61.17 Y79.674 E.02294
G1 X61.227 Y76.548 E.08021
G1 X62.321 Y70.515 E.1573
G1 X62.692 Y70.582 F9000
G1 F1345
G1 X65.378 Y55.76 E.38644
G1 X66.039 Y54.32 E.04065
G1 X67.312 Y53.376 E.04066
G1 X68.515 Y53.141 E.03145
G1 X73.015 Y53.141 E.11545
G1 X74.55 Y53.534 E.04065
G1 X75.706 Y54.618 E.04066
G1 X76.204 Y56.329 E.04572
G1 X76.204 Y72.929 E.42586
G1 X76.125 Y73.636 E.01825
G1 X73.625 Y84.636 E.2894
G1 X72.901 Y86.045 E.04064
G1 X71.587 Y86.932 E.04067
G1 X70.515 Y87.118 E.02791
G1 X68.515 Y87.118 E.05131
G1 X66.981 Y86.724 E.04063
G1 X66.132 Y86.047 E.02786
G1 X62.352 Y81.791 E.14603
G1 X61.547 Y79.674 E.0581
G1 X61.598 Y76.616 E.07846
G1 X62.681 Y70.641 E.15578
;WIPE_START
G1 F7200
G1 X62.692 Y70.582 E-.01425
G1 X63.282 Y67.327 E-.78575
;WIPE_END
G1 X70.095 Y72.512 F9000
G1 E.8 F1800
;TYPE:Perimeter
;WIDTH:0.487876
G1 F1345
G1 X70.062 Y72.559 E.00173
;WIDTH:0.535752
G1 X69.98 Y72.677 E.00479
;WIDTH:0.583629
G1 X69.897 Y72.794 E.00524
;WIDTH:0.631505
G1 X69.814 Y72.912 E.00573
G1 X69.814 Y77.202 E.17042
G1 X69.838 Y77.314 E.00455
;WIDTH:0.583629
G1 X69.862 Y77.426 E.00419
;WIDTH:0.535752
G1 X69.886 Y77.538 E.00382
;WIDTH:0.487876
G1 X69.91 Y77.65 E.00346
;WIDTH:0.439999
G1 X69.91 Y79.043 E.03759
;WIDTH:0.487876
G1 X69.886 Y79.196 E.00467
;WIDTH:0.535752
G1 X69.862 Y79.35 E.0052
;WIDTH:0.583629
G1 X69.838 Y79.503 E.00566
;WIDTH:0.631505
G1 X69.814 Y79.657 E.00619
G1 X69.814 Y83.228 E.14185
G1 X69.217 Y83.228 E.02372
G1 X69.217 Y79.657 E.14185
G1 X69.167 Y79.573 E.00388
;WIDTH:0.583629
G1 X69.117 Y79.489 E.00357
;WIDTH:0.535752
G1 X69.067 Y79.406 E.00323
;WIDTH:0.487876
G1 X69.017 Y79.322 E.00295
;WIDTH:0.439999
G1 X68.791 Y79.128 E.00804
G1 X68.533 Y79.068 E.00715
G1 X65.341 Y79.068 E.08614
G1 X65.341 Y77.79 E.03449
G1 X68.533 Y77.79 E.08614
G1 X68.791 Y77.73 E.00715
;WIDTH:0.48697
G1 X68.921 Y77.592 E.00571
;WIDTH:0.53394
G1 X69.051 Y77.454 E.0063
;WIDTH:0.58091
G1 X69.182 Y77.315 E.00694
;WIDTH:0.606208
G1 X69.199 Y77.258 E.00226
;WIDTH:0.631505
G1 X69.217 Y77.202 E.00234
G1 X69.217 Y72.912 E.17042
G1 X69.193 Y72.666 E.00982
;WIDTH:0.583629
G1 X69.169 Y72.421 E.00899
;WIDTH:0.535752
G1 X69.145 Y72.175 E.00824
;WIDTH:0.487876
G1 X69.121 Y71.929 E.00746
;WIDTH:0.439999
G1 X69.121 Y56.935 E.40461
G1 X72.41 Y56.935 E.08875
G1 X72.41 Y72.323 E.41524
G1 X70.498 Y72.323 E.05159
G1 X70.145 Y72.441 E.01004
;WIDTH:0.487876
G1 X70.13 Y72.463 E.0008
G1 X70.368 Y72.786 F9000
;TYPE:External perimeter
;WIDTH:0.419999
G1 F1345
G1 X70.305 Y72.912 E.00361
G1 X70.305 Y83.719 E.27725
G1 X68.725 Y83.719 E.04053
G1 X68.725 Y79.657 E.10421
G1 X68.691 Y79.547 E.00295
G1 X68.533 Y79.464 E.00458
G1 X64.945 Y79.464 E.09205
G1 X64.945 Y77.394 E.0531
G1 X68.533 Y77.394 E.09205
G1 X68.691 Y77.311 E.00458
G1 X68.725 Y77.202 E.00293
G1 X68.725 Y56.539 E.5301
G1 X72.805 Y56.539 E.10467
G1 X72.805 Y72.719 E.41509
G1 X70.498 Y72.719 E.05918
G1 X70.409 Y72.749 E.00241
;WIPE_START
G1 F7200
G1 X70.368 Y72.786 E-.01312
G1 X70.305 Y72.912 E-.03346
G1 X70.305 Y76.084 E-.75342
;WIPE_END
G1 X69.493 Y77.47 F9000
G1 E.8 F1800
;TYPE:Solid infill
;WIDTH:0.439999
G1 F1345
G1 X69.597 Y77.677 E.00625
G1 X69.597 Y78.955 E.03449
G1 X69.475 Y79.418 E.01292
G1 X69.278 Y79.15 E.00898
G1 X68.964 Y78.874 E.01128
;WIDTH:0.481292
G1 X68.819 Y78.814 E.00467
;WIDTH:0.522584
G1 X68.673 Y78.754 E.00513
;WIDTH:0.563876
G1 X68.527 Y78.694 E.00556
G1 X65.715 Y78.694 E.09905
G1 X65.715 Y78.164 E.01867
G1 X68.527 Y78.164 E.09905
G1 X68.673 Y78.104 E.00556
;WIDTH:0.522584
G1 X68.819 Y78.044 E.00513
;WIDTH:0.481292
G1 X68.964 Y77.984 E.00467
;WIDTH:0.439999
G1 X69.347 Y77.611 E.01443
G1 X69.195 Y78.412 F9000
;WIDTH:0.561098
G1 F1345
G1 X69.148 Y78.365 E.00233
G1 X69.085 Y78.383 E.0023
G1 X69.068 Y78.446 E.00229
G1 X69.114 Y78.493 E.0023
G1 X69.178 Y78.476 E.00232
;WIPE_START
G1 F7200
G1 X69.114 Y78.493 E-.01573
G1 X69.068 Y78.446 E-.01562
G1 X69.085 Y78.383 E-.0155
G1 X69.148 Y78.365 E-.01556
G1 X69.195 Y78.412 E-.01579
;WIPE_END
G1 E-.7218 F1800
G1 X71.895 Y57.247 F9000
G1 E.8 F1800
;WIDTH:0.439999
G1 F1345
G1 X69.434 Y57.247 E.06641
G1 X69.434 Y71.919 E.39592
G1 X69.578 Y72.659 E.02034
G1 X69.921 Y72.232 E.01478
G1 X70.015 Y72.166 E.0031
G1 X70.513 Y72.011 E.01407
G1 X72.097 Y72.011 E.04274
G1 X72.097 Y57.247 E.3984
G1 X71.692 Y57.653 E.01547
G1 X71.692 Y71.605 E.37649
G1 X70.765 Y71.605 E.02501
G1 X70.321 Y71.637 E.01201
G1 X69.839 Y71.804 E.01377
G1 X69.839 Y57.653 E.38186
G1 X71.489 Y57.653 E.04452
G1 X71.286 Y58.058 E.01222
G1 X71.286 Y71.2 E.35463
G1 X70.765 Y71.2 E.01406
G1 X70.245 Y71.243 E.01408
G1 X70.245 Y58.058 E.35579
G1 X71.083 Y58.058 E.02261
G1 X70.924 Y58.42 E.01067
;WIDTH:0.352166
G1 X70.924 Y70.838 E.26254
G1 X70.607 Y70.838 E.0067
G1 X70.607 Y58.42 E.26254
G1 X70.722 Y58.42 E.00243
;LAYER_CHANGE
;Z:0.52
;HEIGHT:0.16
;BEFORE_LAYER_CHANGE
G92 E0
;0.52


;WIPE_START
G1 F7200
G1 X70.607 Y58.42 E-.02731
G1 X70.607 Y61.673 E-.77269
;WIPE_END
G1 Z.52 F9000
;AFTER_LAYER_CHANGE
;0.52
G1 X70.095 Y72.512
G1 E.8 F1800
;TYPE:Perimeter
;WIDTH:0.487876
G1 F900
G1 X70.062 Y72.559 E.00173
;WIDTH:0.535752
G1 X69.98 Y72.677 E.00479
;WIDTH:0.583629
G1 X69.897 Y72.794 E.00524
;WIDTH:0.631505
G1 X69.814 Y72.912 E.00573
G1 X69.814 Y77.042 E.16406
G1 X69.838 Y77.153 E.00451
;WIDTH:0.583629
G1 X69.862 Y77.265 E.00419
;WIDTH:0.535752
G1 X69.886 Y77.377 E.00382
;WIDTH:0.487876
G1 X69.91 Y77.489 E.00346
;WIDTH:0.439999
G1 X69.91 Y79.123 E.04409
;WIDTH:0.487876
G1 X69.886 Y79.296 E.00527
;WIDTH:0.535752
G1 X69.862 Y79.47 E.00586
;WIDTH:0.583629
G1 X69.838 Y79.643 E.00638
;WIDTH:0.631505
G1 X69.814 Y79.817 E.00698
G1 X69.814 Y83.228 E.1355
G1 X69.217 Y83.228 E.02372
G1 X69.217 Y79.817 E.1355
G1 X69.16 Y79.724 E.00433
;WIDTH:0.583629
G1 X69.104 Y79.632 E.00394
;WIDTH:0.535752
G1 X69.047 Y79.54 E.00361
;WIDTH:0.487876
G1 X68.991 Y79.447 E.00328
;WIDTH:0.439999
G1 X68.73 Y79.262 E.00863
G1 X68.533 Y79.228 E.00539
G1 X65.181 Y79.228 E.09045
G1 X65.181 Y77.63 E.04312
G1 X68.533 Y77.63 E.09045
G1 X68.73 Y77.596 E.00539
G1 X68.991 Y77.411 E.00863
G1 X69.045 Y77.292 E.00353
;WIDTH:0.48697
G1 X69.09 Y77.247 E.00192
;WIDTH:0.53394
G1 X69.136 Y77.201 E.00216
;WIDTH:0.58091
G1 X69.182 Y77.155 E.00237
;WIDTH:0.606208
G1 X69.199 Y77.098 E.00226
;WIDTH:0.631505
G1 X69.217 Y77.042 E.00234
G1 X69.217 Y72.912 E.16406
G1 X69.193 Y72.666 E.00982
;WIDTH:0.583629
G1 X69.169 Y72.421 E.00899
;WIDTH:0.535752
G1 X69.145 Y72.175 E.00824
;WIDTH:0.487876
G1 X69.121 Y71.929 E.00746
;WIDTH:0.439999
G1 X69.121 Y56.935 E.40461
G1 X72.41 Y56.935 E.08875
G1 X72.41 Y72.323 E.41524
G1 X70.498 Y72.323 E.05159
G1 X70.145 Y72.441 E.01004
;WIDTH:0.487876
G1 X70.13 Y72.463 E.0008
G1 X70.368 Y72.786 F9000
;TYPE:External perimeter
;WIDTH:0.419999
G1 F900
G1 X70.305 Y72.912 E.00361
G1 X70.305 Y83.719 E.27725
G1 X68.725 Y83.719 E.04053
G1 X68.725 Y79.817 E.1001
G1 X68.683 Y79.696 E.00329
G1 X68.533 Y79.624 E.00427
G1 X64.785 Y79.624 E.09615
G1 X64.785 Y77.234 E.06131
G1 X68.533 Y77.234 E.09615
G1 X68.683 Y77.163 E.00426
G1 X68.725 Y77.042 E.00329
G1 X68.725 Y56.539 E.52599
G1 X72.805 Y56.539 E.10467
G1 X72.805 Y72.719 E.41509
G1 X70.498 Y72.719 E.05918
G1 X70.409 Y72.749 E.00241
;WIPE_START
G1 F7200
G1 X70.368 Y72.786 E-.01312
G1 X70.305 Y72.912 E-.03346
G1 X70.305 Y76.084 E-.75342
;WIPE_END
G1 X69.434 Y71.919 F9000
G1 E.8 F1800
;TYPE:Solid infill
;WIDTH:0.439999
G1 F900
G1 X69.434 Y57.247 E.39592
G1 X72.097 Y57.247 E.07186
G1 X72.097 Y72.011 E.3984
G1 X70.513 Y72.011 E.04274
G1 X70.015 Y72.166 E.01407
G1 X69.921 Y72.232 E.0031
G1 X69.578 Y72.659 E.01478
G1 X69.472 Y72.118 E.01488
G1 X69.839 Y71.804 E.01303
G1 X69.839 Y57.653 E.38186
G1 X71.692 Y57.653 E.05
G1 X71.692 Y71.605 E.37649
G1 X70.765 Y71.605 E.02501
G1 X70.321 Y71.637 E.01201
G1 X70.031 Y71.737 E.00828
G1 X70.245 Y71.243 E.01453
G1 X70.245 Y58.058 E.35579
G1 X71.286 Y58.058 E.02809
G1 X71.286 Y71.2 E.35463
G1 X70.765 Y71.2 E.01406
G1 X70.447 Y71.226 E.00861
G1 X70.607 Y70.838 E.01133
;WIDTH:0.352166
G1 X70.607 Y58.42 E.26254
G1 X70.924 Y58.42 E.0067
G1 X70.924 Y70.838 E.26254
G1 X70.809 Y70.838 E.00243
;WIPE_START
G1 F7200
G1 X70.924 Y70.838 E-.02731
G1 X70.924 Y67.585 E-.77269
;WIPE_END
G1 X65.494 Y78.916 F9000
G1 E.8 F1800
;WIDTH:0.439999
G1 F900
G1 X65.494 Y77.942 E.02628
G1 X68.622 Y77.93 E.08441
G1 X68.809 Y77.897 E.00512
G1 X69.191 Y77.642 E.01239
G1 X69.292 Y77.488 E.00497
G1 X69.492 Y77.309 E.00724
G1 X69.597 Y77.516 E.00626
G1 X69.597 Y79.078 E.04215
G1 X69.47 Y79.57 E.01371
G1 X69.246 Y79.267 E.01017
G1 X68.875 Y78.991 E.01248
G1 X68.66 Y78.928 E.00605
G1 X65.696 Y78.917 E.07998
G1 X65.982 Y78.429 E.01526
;WIDTH:0.626144
