; generated by PrusaSlicer 2.9.4 on 2026-03-11 at 13:10:32 UTC

; 

; external perimeters extrusion width = 0.42mm
; perimeters extrusion width = 0.44mm
; infill extrusion width = 0.44mm
; solid infill extrusion width = 0.44mm
; top infill extrusion width = 0.40mm
; support material extrusion width = 0.36mm
; first layer extrusion width = 0.42mm

;TYPE:Custom
G90 ; use absolute coordinates
M83 ; extruder relative mode
M140 S60 ; set final bed temp
M104 S150 ; set temporary nozzle temp to prevent oozing during homing and auto bed leveling
G4 S10 ; allow partial nozzle warmup
G28 ; home all axis

G1 Z50 F240
G1 X2 Y10 F3000
M104 S210 ; set final nozzle temp
M190 S60 ; wait for bed temp to stabilize
M109 S210 ; wait for nozzle temp to stabilize
G1 Z0.28 F240
G92 E0
G1 Y140 E10 F1500 ; prime the nozzle
G1 X2.3 F5000
G92 E0
G1 Y10 E10 F1200 ; prime the nozzle
G92 E0

M300 S300 P200 ; beep
G21 ; set units to millimeters
G90 ; use absolute coordinates
M83 ; use relative distances for extrusion
; Filament gcode

; play sound when print starts
M300 S523 P100
M107
;LAYER_CHANGE
;Z:0.2
;HEIGHT:0.2
G1 E-.8 F1800
G1 Z.2 F9000
G1 X21.886 Y20.256
G1 E.8 F1800
M204 S500
;TYPE:Skirt/Brim
;WIDTH:0.42
G1 F1200
G1 X23.74 Y18.362 E.0831
G1 X24.935 Y17.395 E.0482
G1 X26.206 Y16.532 E.04817
G1 X27.546 Y15.779 E.04819
G1 X28.862 Y15.177 E.04537
G1 X30.307 Y14.653 E.04819
G1 X31.791 Y14.253 E.04819
G1 X33.304 Y13.98 E.04821
G1 X35.948 Y13.812 E.08307
G1 X37.482 Y13.892 E.04816
G1 X121.861 Y22.829 E2.66044
G1 X123.346 Y23.382 E.04968
G1 X124.381 Y24.582 E.04969
G1 X124.714 Y26 E.04567
G1 X124.714 Y70.5 E1.39527
G1 X124.32 Y72.035 E.04969
G1 X123.236 Y73.19 E.04967
G1 X121.525 Y73.688 E.05587
G1 X113.025 Y73.688 E.26651
G1 X112.12 Y73.557 E.02867
G1 X30.393 Y49.373 E2.67233
G1 X28.007 Y48.446 E.08026
G1 X25.774 Y47.192 E.0803
G1 X23.673 Y45.578 E.08307
G1 X22.57 Y44.507 E.0482
G1 X21.561 Y43.348 E.04818
G1 X20.654 Y42.107 E.0482
G1 X19.898 Y40.873 E.04537
G1 X19.206 Y39.501 E.04818
G1 X18.631 Y38.075 E.04821
G1 X17.931 Y35.52 E.08306
G1 X17.697 Y34.001 E.04819
G1 X17.593 Y32.467 E.04821
G1 X17.613 Y31.02 E.04537
G1 X17.761 Y29.49 E.0482
G1 X18.037 Y27.978 E.04819
G1 X18.809 Y25.444 E.08306
G1 X19.423 Y24.035 E.04819
G1 X20.108 Y22.76 E.04538
G1 X20.944 Y21.47 E.0482
G1 X21.85 Y20.303 E.04632
;WIPE_START
G1 F7200
G1 X21.886 Y20.256 E-.01406
G1 X23.74 Y18.362 E-.62947
G1 X24.252 Y17.948 E-.15647
;WIPE_END
G1 X43.918 Y32.208 F9000
G1 E.8 F1800
;TYPE:Perimeter
;WIDTH:0.419999
G1 F1200
G1 X44.023 Y33.226 E.03209
G1 X44.037 Y33.809 E.01828
G1 X44.008 Y34.402 E.01862
G1 X43.883 Y35.302 E.02849
G1 X43.749 Y35.875 E.01845
G1 X43.463 Y36.737 E.02848
G1 X43.228 Y37.276 E.01844
G1 X42.794 Y38.069 E.02834
G1 X42.278 Y38.806 E.02821
G1 X41.742 Y39.423 E.02563
G1 X41.257 Y39.892 E.02115
G1 X40.55 Y40.452 E.02828
G1 X39.786 Y40.933 E.02831
G1 X39.261 Y41.201 E.01848
G1 X38.498 Y41.509 E.0258
G1 X37.852 Y41.707 E.02118
G1 X36.969 Y41.885 E.02824
G1 X36.071 Y41.967 E.02827
G1 X35.396 Y41.962 E.02116
G1 X34.582 Y41.885 E.02564
G1 X33.701 Y41.707 E.02818
G1 X32.845 Y41.435 E.02816
G1 X32.021 Y41.07 E.02826
G1 X31.433 Y40.738 E.02117
G1 X30.759 Y40.275 E.02564
G1 X30.075 Y39.691 E.0282
G1 X29.46 Y39.037 E.02815
G1 X28.916 Y38.316 E.02832
G1 X28.605 Y37.816 E.01846
G1 X28.198 Y37.004 E.02848
G1 X27.983 Y36.457 E.01843
G1 X27.73 Y35.589 E.02835
G1 X27.573 Y34.705 E.02815
G1 X27.513 Y33.803 E.02834
G1 X27.528 Y33.212 E.01854
G1 X27.633 Y32.198 E.03196
G1 X28.206 Y33.044 E.03204
G1 X28.672 Y33.58 E.02227
G1 X29.184 Y34.086 E.02257
G1 X30.115 Y34.838 E.03752
G1 X30.582 Y35.156 E.01771
G1 X31.296 Y35.562 E.02575
G1 X31.833 Y35.823 E.01872
G1 X32.491 Y36.086 E.02222
G1 X33.284 Y36.329 E.02601
G1 X33.857 Y36.466 E.01847
G1 X34.593 Y36.583 E.02337
G1 X35.264 Y36.643 E.02112
G1 X35.973 Y36.655 E.02223
G1 X36.88 Y36.589 E.02851
G1 X37.384 Y36.523 E.01594
G1 X38.079 Y36.38 E.02225
G1 X38.762 Y36.187 E.02225
G1 X39.428 Y35.945 E.02222
G1 X40.076 Y35.655 E.02226
G1 X40.7 Y35.319 E.02222
G1 X41.299 Y34.938 E.02226
G1 X41.868 Y34.515 E.02223
G1 X42.404 Y34.051 E.02223
G1 X43.017 Y33.421 E.02756
G1 X43.374 Y33.006 E.01716
G1 X43.767 Y32.465 E.02097
G1 X43.9 Y32.212 E.00896
;WIPE_START
G1 F7200
G1 X43.918 Y32.208 E-.00438
G1 X44.023 Y33.226 E-.24306
G1 X44.037 Y33.809 E-.1385
G1 X44.008 Y34.402 E-.14101
G1 X43.883 Y35.302 E-.2158
G1 X43.828 Y35.537 E-.05725
;WIPE_END
G1 X44.09 Y30.875 F9000
G1 E.8 F1800
;TYPE:External perimeter
G1 F1200
G1 X44.226 Y31.337 E.0151
G1 X44.4 Y33.217 E.0592
G1 X44.414 Y33.813 E.01869
G1 X44.384 Y34.437 E.01959
G1 X44.254 Y35.371 E.02957
G1 X44.112 Y35.977 E.01952
G1 X43.815 Y36.872 E.02957
G1 X43.567 Y37.443 E.01952
G1 X43.114 Y38.268 E.02951
G1 X42.576 Y39.038 E.02945
G1 X42.016 Y39.683 E.02678
G1 X41.505 Y40.176 E.02226
G1 X40.769 Y40.76 E.02946
G1 X39.972 Y41.261 E.02952
G1 X39.417 Y41.544 E.01953
G1 X38.624 Y41.865 E.02682
G1 X37.945 Y42.073 E.02227
G1 X37.023 Y42.259 E.02949
G1 X36.087 Y42.344 E.02947
G1 X35.377 Y42.339 E.02226
G1 X34.527 Y42.259 E.02677
G1 X33.606 Y42.073 E.02946
G1 X32.711 Y41.788 E.02945
G1 X31.851 Y41.407 E.02949
G1 X31.233 Y41.058 E.02225
G1 X30.529 Y40.575 E.02677
G1 X29.719 Y39.862 E.03383
G1 X29.001 Y39.055 E.03387
G1 X28.491 Y38.347 E.02736
G1 X28.232 Y37.914 E.01582
G1 X27.821 Y37.077 E.02924
G1 X27.514 Y36.196 E.02925
G1 X27.347 Y35.593 E.01962
G1 X27.194 Y34.682 E.02896
G1 X27.137 Y33.768 E.02871
G1 X27.159 Y33.107 E.02074
G1 X27.283 Y31.912 E.03767
G1 X27.323 Y31.348 E.01773
G1 X27.458 Y30.882 E.01521
G1 X27.671 Y31.298 E.01465
G1 X27.918 Y31.946 E.02174
G1 X28.484 Y32.789 E.03184
G1 X28.938 Y33.312 E.02171
G1 X29.424 Y33.796 E.02151
G1 X30.328 Y34.527 E.03645
G1 X30.772 Y34.83 E.01685
G1 X31.462 Y35.223 E.0249
G1 X31.974 Y35.473 E.01786
G1 X32.606 Y35.727 E.02136
G1 X33.372 Y35.962 E.02512
G1 X33.919 Y36.094 E.01764
G1 X34.628 Y36.208 E.02252
G1 X35.271 Y36.266 E.02024
G1 X35.952 Y36.278 E.02136
G1 X36.633 Y36.24 E.02139
G1 X37.309 Y36.153 E.02137
G1 X37.977 Y36.017 E.02137
G1 X38.634 Y35.832 E.0214
G1 X39.275 Y35.601 E.02136
G1 X39.898 Y35.323 E.02139
G1 X40.499 Y35 E.02139
G1 X41.074 Y34.635 E.02135
G1 X41.622 Y34.229 E.02138
G1 X42.138 Y33.784 E.02136
G1 X42.732 Y33.174 E.0267
G1 X43.069 Y32.785 E.01614
G1 X43.461 Y32.243 E.02097
G1 X43.687 Y31.794 E.01576
G1 X43.881 Y31.295 E.01679
G1 X44.064 Y30.922 E.01303
;WIPE_START
G1 F7200
G1 X44.09 Y30.875 E-.01276
G1 X44.226 Y31.337 E-.11438
G1 X44.4 Y33.217 E-.44841
G1 X44.414 Y33.813 E-.14159
G1 X44.397 Y34.161 E-.08286
;WIPE_END
G1 X43.515 Y33.014 F9000
G1 E.8 F1800
;TYPE:Solid infill
;WIDTH:0.429853
G1 F1200
G1 X43.733 Y33.231 E.0099
G1 X43.746 Y33.792 E.01805
G1 X43.389 Y33.435 E.01624
G1 X43.134 Y33.727 E.01247
G1 X43.722 Y34.315 E.02675
G1 X43.66 Y34.8 E.01573
G1 X42.863 Y34.003 E.03626
G1 X42.588 Y34.275 E.01244
G1 X43.59 Y35.277 E.04559
G1 X43.486 Y35.721 E.01467
G1 X42.295 Y34.53 E.05419
G1 X41.998 Y34.779 E.01247
G1 X43.356 Y36.137 E.06179
G1 X43.219 Y36.548 E.01394
G1 X41.683 Y35.012 E.06989
G1 X41.365 Y35.241 E.01261
G1 X43.06 Y36.936 E.07712
G1 X42.881 Y37.305 E.0132
G1 X41.03 Y35.454 E.08422
G1 X40.685 Y35.656 E.01286
G1 X42.688 Y37.658 E.09111
G1 X42.485 Y38.003 E.01288
G1 X40.329 Y35.847 E.0981
G1 X39.961 Y36.026 E.01317
G1 X42.26 Y38.325 E.10461
G1 X42.033 Y38.645 E.01262
G1 X39.582 Y36.194 E.11152
G1 X39.184 Y36.343 E.01367
G1 X41.779 Y38.938 E.11807
G1 X41.524 Y39.23 E.01247
G1 X38.777 Y36.484 E.12497
G1 X38.35 Y36.604 E.01427
G1 X41.245 Y39.499 E.13172
G1 X40.957 Y39.758 E.01246
G1 X37.911 Y36.712 E.13859
G1 X37.456 Y36.804 E.01494
G1 X40.652 Y40.001 E.14544
G1 X40.344 Y40.239 E.01252
G1 X36.972 Y36.868 E.1534
G1 X36.475 Y36.918 E.01607
G1 X40.008 Y40.451 E.16075
G1 X39.672 Y40.662 E.01277
G1 X35.955 Y36.945 E.16912
G1 X35.397 Y36.934 E.01796
G1 X39.312 Y40.849 E.17813
G1 X39.14 Y40.936 E.0062
G1 X38.935 Y41.019 E.00712
G1 X34.81 Y36.894 E.18769
G1 X34.182 Y36.814 E.02037
G1 X38.545 Y41.177 E.19852
G1 X38.401 Y41.235 E.00499
G1 X38.137 Y41.316 E.00888
G1 X33.499 Y36.677 E.21105
G1 X33.043 Y36.567 E.01509
G1 X32.745 Y36.471 E.01007
G1 X37.713 Y41.439 E.22605
G1 X37.257 Y41.531 E.01497
G1 X31.883 Y36.156 E.24454
G1 X31.064 Y35.771 E.02912
G1 X30.795 Y35.615 E.01
G1 X36.79 Y41.61 E.27277
G1 X36.288 Y41.655 E.01622
G1 X27.822 Y33.189 E.38521
G1 X27.806 Y33.72 E.01709
G1 X35.76 Y41.674 E.36191
G1 X35.189 Y41.651 E.01839
G1 X27.837 Y34.299 E.33452
G1 X27.862 Y34.67 E.01196
G1 X27.905 Y34.914 E.00797
G1 X34.579 Y41.589 E.30369
G1 X33.894 Y41.45 E.02249
G1 X28.032 Y35.588 E.26672
G1 X28.257 Y36.361 E.0259
G1 X33.111 Y41.215 E.22086
G1 X32.948 Y41.163 E.0055
G1 X32.166 Y40.816 E.02753
G1 X28.693 Y37.344 E.158
G1 X28.859 Y37.674 E.01188
G1 X29.155 Y38.152 E.01809
G1 X29.682 Y38.85 E.02814
G1 X30.17 Y39.368 E.0229
G1 X31.307 Y40.505 E.05173
;WIPE_START
G1 F7200
G1 X30.17 Y39.368 E-.38189
G1 X29.682 Y38.85 E-.16902
G1 X29.155 Y38.152 E-.20772
G1 X29.063 Y38.004 E-.04137
;WIPE_END
G1 X40.676 Y30.92 F9000
G1 E.8 F1800
;TYPE:Perimeter
;WIDTH:0.419999
G1 F1200
G1 X40.68 Y30.759 E.00505
G1 X40.585 Y30.157 E.01911
G1 X40.425 Y29.668 E.01613
G1 X40.116 Y29.033 E.02214
G1 X39.803 Y28.582 E.01721
G1 X39.339 Y28.075 E.02155
G1 X38.776 Y27.634 E.02242
G1 X38.285 Y27.363 E.01758
G1 X37.654 Y27.115 E.02126
G1 X37.024 Y26.986 E.02016
G1 X36.684 Y26.99 E.01066
G1 X36.888 Y26.856 E.00765
G1 X37.334 Y26.63 E.01568
G1 X37.661 Y26.518 E.01084
G1 X38.163 Y26.427 E.016
G1 X38.73 Y26.44 E.01778
G1 X39.235 Y26.546 E.01618
G1 X39.786 Y26.774 E.0187
G1 X40.137 Y27.009 E.01324
G1 X40.536 Y27.38 E.01708
G1 X40.824 Y27.771 E.01523
G1 X40.972 Y28.063 E.01026
G1 X41.148 Y28.562 E.01659
G1 X41.233 Y29.074 E.01627
G1 X41.226 Y29.494 E.01317
G1 X41.14 Y29.981 E.01551
G1 X40.966 Y30.455 E.01583
G1 X40.708 Y30.869 E.01529
;WIPE_START
G1 F7200
G1 X40.676 Y30.92 E-.0143
G1 X40.68 Y30.759 E-.03825
G1 X40.585 Y30.157 E-.14474
G1 X40.425 Y29.668 E-.1222
G1 X40.116 Y29.033 E-.16772
G1 X39.803 Y28.582 E-.13038
G1 X39.339 Y28.075 E-.16323
G1 X39.275 Y28.025 E-.01918
;WIPE_END
G1 X40.094 Y32.129 F9000
G1 E.8 F1800
;TYPE:External perimeter
G1 F1200
G1 X40.086 Y32.134 E.0003
G1 X40.285 Y31.218 E.02939
G1 X40.304 Y30.749 E.01472
G1 X40.26 Y30.469 E.00889
G1 X40.085 Y29.83 E.02077
G1 X39.814 Y29.261 E.01976
G1 X39.521 Y28.833 E.01626
G1 X39.104 Y28.37 E.01954
G1 X38.585 Y27.959 E.02076
G1 X38.142 Y27.712 E.0159
G1 X37.573 Y27.483 E.01923
G1 X36.896 Y27.352 E.02162
G1 X36.262 Y27.402 E.01994
G1 X36.025 Y27.482 E.00784
G1 X35.498 Y27.594 E.01689
G1 X35.762 Y27.192 E.01508
G1 X36.099 Y26.923 E.01352
G1 X36.828 Y26.464 E.02701
G1 X37.496 Y26.173 E.02285
G1 X38.027 Y26.064 E.017
G1 X38.44 Y26.04 E.01297
G1 X38.922 Y26.081 E.01517
G1 X39.448 Y26.213 E.017
G1 X39.947 Y26.433 E.0171
G1 X40.404 Y26.736 E.01719
G1 X40.803 Y27.113 E.01721
G1 X41.133 Y27.554 E.01727
G1 X41.382 Y28.047 E.01732
G1 X41.548 Y28.593 E.01789
G1 X41.611 Y29.08 E.0154
G1 X41.602 Y29.569 E.01533
G1 X41.499 Y30.11 E.01727
G1 X41.305 Y30.623 E.0172
G1 X40.615 Y31.732 E.04095
G1 X40.339 Y31.986 E.01176
G1 X40.146 Y32.099 E.00701
;WIPE_START
G1 F7200
G1 X40.094 Y32.129 E-.01426
G1 X40.086 Y32.134 E-.00224
G1 X40.285 Y31.218 E-.22262
G1 X40.304 Y30.749 E-.11148
G1 X40.26 Y30.469 E-.06732
G1 X40.085 Y29.83 E-.15735
G1 X39.814 Y29.261 E-.14968
G1 X39.636 Y29.001 E-.07505
;WIPE_END
G1 X40.907 Y28.206 F9000
G1 E.8 F1800
;TYPE:Solid infill
;WIDTH:0.483656
G1 F1200
G1 X39.894 Y27.193 E.0525
G1 X39.691 Y27.05 E.0091
G1 X39.297 Y26.864 E.01597
G1 X38.819 Y26.742 E.01808
G1 X40.916 Y28.839 E.10868
G1 X40.943 Y29.053 E.0079
G1 X40.936 Y29.482 E.01572
G1 X38.025 Y26.571 E.15087
;WIPE_START
G1 F7200
G1 X40.407 Y28.953 E-.8
;WIPE_END
G1 X46.094 Y41.234 F9000
G1 E.8 F1800
;TYPE:External perimeter
;WIDTH:0.419999
G1 F1200
G1 X45.539 Y41.837 E.0257
G1 X44.629 Y42.663 E.03853
G1 X43.893 Y43.221 E.02896
G1 X43.26 Y43.658 E.02412
G1 X42.236 Y44.261 E.03726
G1 X41.54 Y44.59 E.02414
G1 X40.839 Y44.891 E.02392
G1 X39.948 Y45.216 E.02974
G1 X39.151 Y45.442 E.02597
G1 X38.634 Y45.561 E.01663
G1 X37.938 Y45.69 E.02219
G1 X37.12 Y45.794 E.02585
G1 X36.256 Y45.84 E.02713
G1 X35.493 Y45.845 E.02392
G1 X34.65 Y45.814 E.02645
G1 X33.827 Y45.722 E.02597
G1 X33.303 Y45.636 E.01665
G1 X32.772 Y45.527 E.017
G1 X31.812 Y45.281 E.03107
G1 X30.897 Y44.963 E.03037
G1 X29.518 Y44.367 E.0471
G1 X28.79 Y43.971 E.02598
G1 X28.338 Y43.694 E.01662
G1 X27.793 Y43.329 E.02057
G1 X27.172 Y42.863 E.02434
G1 X26.165 Y41.987 E.04185
G1 X25.733 Y41.546 E.01936
G1 X25.215 Y40.969 E.02431
G1 X24.306 Y39.782 E.04688
G1 X23.862 Y39.083 E.02596
G1 X23.461 Y38.361 E.02589
G1 X23.145 Y37.677 E.02362
G1 X22.842 Y36.969 E.02415
G1 X22.654 Y36.464 E.0169
G1 X22.463 Y35.842 E.0204
G1 X22.135 Y34.463 E.04444
G1 X21.971 Y33.245 E.03853
G1 X21.932 Y32.383 E.02706
G1 X21.932 Y31.616 E.02405
G1 X21.97 Y30.772 E.02649
G1 X22.043 Y30.153 E.01954
G1 X22.157 Y29.426 E.02307
G1 X22.27 Y28.897 E.01696
G1 X22.467 Y28.142 E.02447
G1 X22.938 Y26.775 E.04533
G1 X23.455 Y25.651 E.03879
G1 X23.856 Y24.926 E.02598
G1 X24.298 Y24.229 E.02588
G1 X24.978 Y23.315 E.03572
G1 X25.749 Y22.44 E.03657
G1 X26.763 Y21.47 E.044
G1 X27.186 Y21.129 E.01704
G1 X27.808 Y20.66 E.02443
G1 X28.428 Y20.247 E.02336
G1 X29.14 Y19.831 E.02586
G1 X30.194 Y19.316 E.03678
G1 X31.406 Y18.847 E.04075
G1 X32.026 Y18.661 E.0203
G1 X32.778 Y18.473 E.0243
G1 X34.222 Y18.227 E.04593
G1 X35.047 Y18.159 E.02595
G1 X35.758 Y18.141 E.0223
G1 X36.287 Y18.149 E.01659
G1 X37.109 Y18.204 E.02583
G1 X38.331 Y18.378 E.0387
G1 X39.14 Y18.555 E.02597
G1 X39.942 Y18.781 E.02613
G1 X41.095 Y19.202 E.03849
G1 X41.85 Y19.542 E.02596
G1 X42.581 Y19.926 E.02589
G1 X43.635 Y20.584 E.03896
G1 X44.537 Y21.266 E.03546
G1 X45.539 Y22.163 E.04217
G1 X46.372 Y23.067 E.03854
G1 X46.887 Y23.716 E.02598
G1 X47.582 Y24.74 E.0388
G1 X47.991 Y25.453 E.02577
G1 X48.324 Y26.146 E.02411
G1 X48.636 Y26.849 E.02412
G1 X48.828 Y27.34 E.01653
G1 X49.032 Y27.97 E.02076
G1 X49.376 Y29.334 E.04411
G1 X49.559 Y30.55 E.03856
G1 X49.612 Y31.422 E.02739
G1 X49.622 Y32.184 E.02389
G1 X49.597 Y33.022 E.02629
G1 X49.463 Y34.152 E.03568
G1 X49.322 Y34.909 E.02414
G1 X49.086 Y35.863 E.03081
G1 X48.772 Y36.787 E.0306
G1 X48.49 Y37.502 E.0241
G1 X47.998 Y38.534 E.03585
G1 X47.582 Y39.236 E.02559
G1 X47.165 Y39.887 E.02424
G1 X46.381 Y40.922 E.04071
G1 X46.135 Y41.19 E.01141
G1 X46.383 Y41.499 F9000
;TYPE:Perimeter
;WIDTH:0.45415
G1 F1200
G1 X45.67 Y42.249 E.03538
;WIDTH:0.45214
G1 X44.82 Y43.012 E.03887
;WIDTH:0.440212
G1 X43.841 Y43.744 E.04038
G1 X43.126 Y44.2 E.02801
;WIDTH:0.444634
G1 X42.381 Y44.625 E.02865
;WIDTH:0.458534
G1 X41.708 Y44.948 E.0258
G1 X40.974 Y45.262 E.02759
;WIDTH:0.455052
G1 X39.829 Y45.658 E.04152
;WIDTH:0.450286
G1 X39.228 Y45.823 E.02111
;WIDTH:0.441816
G1 X38.697 Y45.943 E.01806
;WIDTH:0.441328
G1 X37.976 Y46.074 E.02428
;WIDTH:0.448142
G1 X37.074 Y46.189 E.03064
;WIDTH:0.45715
G1 X36.277 Y46.235 E.0275
G1 X35.478 Y46.241 E.02752
G1 X34.268 Y46.167 E.04175
;WIDTH:0.451272
G1 X33.754 Y46.103 E.01759
;WIDTH:0.44195
G1 X33.217 Y46.015 E.01806
G1 X32.5 Y45.864 E.02431
;WIDTH:0.451852
G1 X31.521 Y45.597 E.0345
G1 X30.491 Y45.231 E.03717
;WIDTH:0.45864
G1 X29.297 Y44.692 E.04528
;WIDTH:0.44649
G1 X28.579 Y44.298 E.02748
;WIDTH:0.444726
G1 X28.117 Y44.009 E.01821
;WIDTH:0.443566
G1 X27.506 Y43.604 E.02442
G1 X26.824 Y43.085 E.02855
;WIDTH:0.458994
G1 X25.881 Y42.245 E.04369
;WIDTH:0.440964
G1 X25.285 Y41.641 E.02808
G1 X24.737 Y41.009 E.02769
;WIDTH:0.458594
G1 X24.422 Y40.601 E.01782
G1 X23.729 Y39.606 E.04191
;WIDTH:0.451686
G1 X23.32 Y38.917 E.02723
G1 X23.081 Y38.47 E.01723
;WIDTH:0.458612
G1 X22.785 Y37.843 E.02397
G1 X22.475 Y37.106 E.02764
;WIDTH:0.450892
G1 X22.284 Y36.566 E.01943
;WIDTH:0.441584
G1 X22.029 Y35.748 E.0284
;WIDTH:0.459156
G1 X21.731 Y34.401 E.04775
;WIDTH:0.450162
G1 X21.579 Y33.239 E.03968
;WIDTH:0.457248
G1 X21.537 Y32.401 E.02891
G1 X21.537 Y31.599 E.02763
G1 X21.585 Y30.712 E.0306
;WIDTH:0.443876
G1 X21.686 Y29.874 E.02814
;WIDTH:0.442912
G1 X21.779 Y29.337 E.01813
;WIDTH:0.441898
G1 X21.934 Y28.621 E.0243
;WIDTH:0.441584
